!!!!SEGMENT: pl-kk--kk-i-278--001_anonim--salutis-humanae-sator.krn
!!!cenid: 17xx:2087
!!!COM: Anonim
!!!COM-rism: pe30004985
!!!CDT:
!!!CNT:
!!!OTL: Salutis humanae sator
!!!PDT:
!!!AGN: Sacred
!!!SMS-siglum: PL-Kk
!!!SMS-shelfmark: Kk.I.278
!!!NIFC-rismID: 1001147612
!!!URL-scan: http://repozytorium.nifc.pl/skany/pl-kk-nut--i-278
!!!ONB-nifc: UWAGA: utwory w zbiorze: 1. Salutis humanae sator (SATBB), 2. Aeterne rex altissime (tylko głos B conc)
!!!SMS-variant:
!!!SMS-altvar:
**kern	**text	**text	**text	**kern	**text	**text	**kern	**text	**text	**kern	**text	**text	**kern	**text	**text
*part5	*part5	*part5	*part5	*part4	*part4	*part4	*part3	*part3	*part3	*part2	*part2	*part2	*part1	*part1	*part1
*staff5	*staff5	*staff5	*staff5	*staff4	*staff4	*staff4	*staff3	*staff3	*staff3	*staff2	*staff2	*staff2	*staff1	*staff1	*staff1
*I"Baſsus in Concerto.	*	*	*	*I"Baſso	*	*	*I"Tenore	*	*	*I"Alto.	*	*	*I"Canto	*	*
*I'B. in Concerto.	*	*	*	*I'B.	*	*	*I'T.	*	*	*I'A.	*	*	*I'C.	*	*
*clefF4	*	*	*	*clefF4	*	*	*clefC4	*	*	*clefC3	*	*	*clefC1	*	*
*k[]	*	*	*	*k[]	*	*	*k[]	*	*	*k[]	*	*	*k[]	*	*
*M2/1	*	*	*	*M2/1	*	*	*M2/1	*	*	*M2/1	*	*	*M2/1	*	*
*met(C|)	*	*	*	*met(C|)	*	*	*met(C|)	*	*	*met(C|)	*	*	*met(C|)	*	*
!	!	!	!	!	!	!	!LO:TX:t=P:problem:kreska pseudotaktowa	!	!	!	!	!	!	!	!
*tb16	*	*	*	*tb16	*	*	*tb16	*	*	*tb16	*	*	*tb16	*	*
=1-	=1-	=1-	=1-	=1-	=1-	=1-	=1-	=1-	=1-	=1-	=1-	=1-	=1-	=1-	=1-
1F\	1. Sa-	3. Per-	5. Tu	1F\	1. Sa-	3. Per-	1r	.	.	00r	.	.	00r	.	.
*	*	*	*	*2\right	*	*	*	*	*	*	*	*	*	*	*
2E\	-lu-	-rum-	Dux	2E\	-lu-	-rum-	1c\	1. Sa-	3. Per-	.	.	.	.	.	.
!LO:TX:t=P:problem:kreska pseudotaktowa	!	!	!	!LO:TX:t=P:problem:kreska pseudotaktowa	!	!	!	!	!	!	!	!	!	!	!
2F\	-tis	-pis	ad	2F\	-tis	-pis	.	.	.	.	.	.	.	.	.
=2-	=2-	=2-	=2-	=2-	=2-	=2-	=2-	=2-	=2-	=2-	=2-	=2-	=2-	=2-	=2-
*	*	*	*	*	*	*	*2\right	*	*	*	*	*	*	*	*
2G\	hu-	in-	as-	2G\	hu-	in-	2Bn\	-lu-	-rum-	.	.	.	.	.	.
!LO:TX:t=P:problem:kreska pseudotaktowa	!	!	!	!	!	!	!LO:TX:t=P:problem:kreska pseudotaktowa	!	!	!	!	!	!	!	!
2A\	-ma-	-fer-	-tra	2A\	-ma-	-fer-	2c\	-tis	-pis	.	.	.	.	.	.
2.G\	.	.	et	2.G\	.	.	2d\	hu-	in-	.	.	.	.	.	.
!	!	!	!	!	!	!	!LO:TX:t=P:problem:kreska pseudotaktowa	!	!	!	!	!	!	!	!
.	.	.	.	.	.	.	2e\	-ma-	-fer-	.	.	.	.	.	.
!LO:TX:t=P:problem:kreska pseudotaktowa	!	!	!	!LO:TX:t=P:problem:kreska pseudotaktowa	!	!	!	!	!	!	!	!	!	!	!
4E\	.	.	.	4E\	.	.	.	.	.	.	.	.	.	.	.
=3-	=3-	=3-	=3-	=3-	=3-	=3-	=3-	=3-	=3-	=3-	=3-	=3-	=3-	=3-	=3-
!LO:TX:a:t=P:problem:# above	!	!	!	!	!	!	!	!	!	!LO:TX:t=P:problem:kreska pseudotaktowa	!	!	!	!	!
2F#X\	-nae	num	Se-	2F#X\	-nae	num	2.d\	-nae	-num	0r	.	.	00r	.	.
2.G\	Sa-	cha-	.	2.G\	Sa-	cha-	.	.	.	.	.	.	.	.	.
!	!	!	!	!	!	!	!LO:TX:t=P:problem:kreska pseudotaktowa	!	!	!	!	!	!	!	!
.	.	.	.	.	.	.	4c\	.	.	.	.	.	.	.	.
.	.	.	.	.	.	.	2d\	Sa-	cha-	.	.	.	.	.	.
4F\	.	.	.	4F\	.	.	.	.	.	.	.	.	.	.	.
4E\	.	.	.	4E\	.	.	2.e\	.	.	.	.	.	.	.	.
!LO:TX:t=P:problem:kreska pseudotaktowa	!	!	!	!LO:TX:t=P:problem:kreska pseudotaktowa	!	!	!	!	!	!	!	!	!	!	!
4D\	.	.	.	4D\	.	.	.	.	.	.	.	.	.	.	.
=4-	=4-	=4-	=4-	=4-	=4-	=4-	=4-	=4-	=4-	=4-	=4-	=4-	=4-	=4-	=4-
2C/	.	.	.	1C/	.	.	.	.	.	1c\	1. Sa-	3. er-	.	.	.
.	.	.	.	.	.	.	4d\	.	.	.	.	.	.	.	.
!LO:TX:t=P:problem:kreska pseudotaktowa	!	!	!	!	!	!	!	!	!	!	!	!	!	!	!
2C/	.	.	-mi-	.	.	.	4e\	.	.	.	.	.	.	.	.
!	!	!	!	!	!	!	!LO:TX:t=P:problem:kreska pseudotaktowa	!	!	!	!	!	!	!	!
.	.	.	.	.	.	.	4c\	.	.	.	.	.	.	.	.
2GG/	-tor,	os;	-na	2GG,/	-tor,	os;	2d\	.	.	2Bn/	-lu-	-rum-	.	.	.
!LO:TX:t=P:problem:kreska pseudotaktowa	!	!	!	!	!	!	!	!	!	!LO:TX:t=P:problem:kreska pseudotaktowa	!	!	!	!	!
*	*ij	*ij	*ij	*	*	*	*	*	*	*	*	*	*	*	*
2C/	Sa-	per-	Tu	2C/	Sa-	per-	2e\	.	.	2c/	-tis	.	.	.	.
=5-	=5-	=5-	=5-	=5-	=5-	=5-	=5-	=5-	=5-	=5-	=5-	=5-	=5-	=5-	=5-
*	*	*	*	*	*	*	*	*	*	*2\right	*	*	*	*	*
!	!	!	!	!	!	!	!	!	!	!	!	!	!LO:TX:t=P:problem:kreska pseudotaktowa	!	!
2BB/	-lu-	-rum-	Dux	2BB/	-lu-	-rum-	2d\	.	.	2d\	hu-	-pis	1r	.	.
!LO:TX:t=P:problem:kreska pseudotaktowa	!	!	!	!LO:TX:t=P:problem:kreska pseudotaktowa	!	!	!	!	!	!	!	!	!	!	!
2C/	-tis	-pis	ad	2C/	-tis	-pis	4c\	.	.	2e\	-ma-	in-	.	.	.
.	.	.	.	.	.	.	4B\	.	.	.	.	.	.	.	.
!	!	!	!	!	!	!	!LO:TX:t=P:problem:kreska pseudotaktowa	!	!	!	!	!	!	!	!
4D\	hu-	in-	as-	4D\	hu-	in-	0A\	-tor:	-os:	2d\	-nae	-fer-	0f/	1. Sa-	3. Per-
4E\	.	.	.	4E\	.	.	.	.	.	.	.	.	.	.	.
4F\	.	.	.	4F\	.	.	.	.	.	4c/	.	-num	.	.	.
!	!	!	!	!	!	!	!	!	!	!LO:TX:t=P:problem:kreska pseudotaktowa	!	!	!	!	!
4G\	.	.	.	4G\	.	.	.	.	.	4B/	.	.	.	.	.
=6-	=6-	=6-	=6-	=6-	=6-	=6-	=6-	=6-	=6-	=6-	=6-	=6-	=6-	=6-	=6-
2A\	-ma-	-fer-	-tra	2A\	-ma-	-fer-	.	.	.	4c/	Sa-	.	.	.	.
.	.	.	.	.	.	.	.	.	.	4A/	.	.	.	.	.
!LO:TX:t=P:problem:kreska pseudotaktowa	!	!	!	!	!	!	!	!	!	!	!	!	!	!	!
2F\	-nae	-num	et	2F,\	-nae	-num	.	.	.	1d\	.	cha-	.	.	.
2G\	Sa-	cha-	Se-	(2G\	Sa-	cha-	1r	.	.	.	.	.	1e/	-lu-	-rum-
!	!	!	!	!	!	!	!	!	!	!LO:TX:t=P:problem:kreska pseudotaktowa	!	!	!	!	!
2A\	.	.	-mi-	2A\)	.	.	.	.	.	2c#X\	.	.	.	.	.
=7-	=7-	=7-	=7-	=7-	=7-	=7-	=7-	=7-	=7-	=7-	=7-	=7-	=7-	=7-	=7-
!	!	!	!	!LO:TX:t=P:problem:kreska pseudotaktowa	!	!	!	!	!	!	!	!	!LO:TX:t=P:problem:kreska pseudotaktowa	!	!
!LO:TX:t=P:problem:kreska pseudotaktowa	!	!	!	!	!	!	!	!	!	!	!	!	!	!	!
1D\	-tor.	-os	-na	1D\,	-tor.	-os	2r	.	.	2d,\	-tor,	-os;	1f/	-tis	-pis
*	*Xij	*Xij	*Xij	*	*	*	*	*	*	*	*	*	*	*	*
!	!	!	!	!	!	!	!LO:TX:t=P:problem:kreska pseudotaktowa	!	!	!	!	!	!	!	!
.	.	.	.	.	.	.	2d\	Sa-	Per-	2f\	Sa-	per-	.	.	.
!	!	!	!	!LO:LB:g=original	!	!	!	!	!	!	!	!	!	!	!
!LO:SIC:v:t=custos f	!	!	!	!	!	!	!	!	!	!	!	!	!	!	!
1r	.	.	.	1r	.	.	2B\	-lu-	-rum-	2d\	-lu-	-rum-	1g\	hu-	in-
!	!	!	!	!	!	!	!LO:SIC:v:t=custos f	!	!	!LO:TX:t=P:problem:kreska pseudotaktowa	!	!	!	!	!
!	!	!	!	!	!	!	!LO:TX:t=P:problem:kreska pseudotaktowa	!	!	!	!	!	!	!	!
.	.	.	.	.	.	.	2c\	-tis	-pis	2e\	-tis	-pis	.	.	.
=8-	=8-	=8-	=8-	=8-	=8-	=8-	=8-	=8-	=8-	=8-	=8-	=8-	=8-	=8-	=8-
!LO:LB:g=original	!	!	!	!	!	!	!LO:LB:g=original	!	!	!	!	!	!	!	!
2r	.	.	.	2r	.	.	2F/	hu-	in-	2f\	hu-	in-	1.a\	-ma-	-fer-
!LO:TX:t=P:problem:kreska pseudotaktowa	!	!	!	!	!	!	!	!	!	!	!	!	!	!	!
2F\	Sa-	Per-	Tu	2F\	Sa-	Per-	2.A/	-ma-	-fer-	2c\	-ma-	-fer-	.	.	.
2D\	-lu-	-rum-	Dux	2D\	-lu-	-rum-	.	.	.	2f\	-nae	-num	.	.	.
.	.	.	.	.	.	.	4F/	.	.	.	.	.	.	.	.
!LO:TX:t=P:problem:kreska pseudotaktowa	!	!	!	!LO:TX:t=P:problem:kreska pseudotaktowa	!	!	!LO:TX:t=P:problem:kreska pseudotaktowa	!	!	!	!	!	!LO:TX:t=P:problem:kreska pseudotaktowa	!	!
2E\	-tis	-pis	ad	2E\	-tis	-pis	2G/	.	.	4e\	Sa-	cha-	2g/	-nae	-num
.	.	.	.	.	.	.	.	.	.	4d\	.	.	.	.	.
=9-	=9-	=9-	=9-	=9-	=9-	=9-	=9-	=9-	=9-	=9-	=9-	=9-	=9-	=9-	=9-
2F\	hu-	in-	as-	2F\	hu-	in-	2A/	-nae	-num	1.c\	.	.	2f/	Sa-	cha-
!LO:TX:t=P:problem:kreska pseudotaktowa	!	!	!	!	!	!	!	!	!	!	!	!	!	!	!
2C/	-ma-	-fer-	-tra	2C/	-ma-	-fer-	2G/	.	.	.	.	.	1e/	.	.
2F\	-nae	-num	et Se-	2F,\	-nae	-num	1.A\	Sa-	cha-	.	.	.	.	.	.
2F\	Sa-	cha-	-mi-	2F\	Sa-	cha-	.	.	.	2A/	.	.	2d/	.	.
=10-	=10-	=10-	=10-	=10-	=10-	=10-	=10-	=10-	=10-	=10-	=10-	=10-	=10-	=10-	=10-
!LO:TX:a:t=4	!	!	!	!LO:TX:t=P:problem:kreska pseudotaktowa	!	!	!	!	!	!LO:TX:t=P:problem:kreska pseudotaktowa	!	!	!LO:TX:t=P:problem:kreska pseudotaktowa	!	!
!LO:TX:t=P:problem:kreska pseudotaktowa	!	!	!	!	!	!	!	!	!	!	!	!	!	!	!
00E\	-tor	-os	-na/	[<0E\	-tor	-os	.	.	.	0B/	-tor.	-os	[0e/	tor:	-os;
!	!	!	!	!	!	!	!LO:TX:t=P:problem:kreska pseudotaktowa	!	!	!	!	!	!	!	!
.	.	.	.	.	.	.	2G#X/	.	.	.	.	.	.	.	.
.	.	.	.	.	.	.	2.G#y/	.	.	.	.	.	.	.	.
.	.	.	.	.	.	.	4A\	.	.	.	.	.	.	.	.
=11-	=11-	=11-	=11-	=11-	=11-	=11-	=11-	=11-	=11-	=11-	=11-	=11-	=11-	=11-	=11-
!	!	!	!	!	!	!	!	!	!	!LO:LB:g=original	!	!	!	!	!
!	!	!	!	!	!	!	!	!	!	!	!	!	!LO:TX:t=P:problem:kreska pseudotaktowa	!	!
.	.	.	.	0E\]	.	.	1B\	-tor:	-os	2r	.	.	0.e/]	.	.
.	.	.	.	.	.	.	.	.	.	2G/	Je-	vin-	.	.	.
.	.	.	.	.	.	.	2r	.	.	2B/	-su	-ctis	.	.	.
!	!	!	!	!	!	!	!	!	!	!LO:TX:t=P:problem:kreska pseudotaktowa	!	!	!	!	!
.	.	.	.	.	.	.	2Gn/	Je-	Vin-	2B/	vo-	ca-	.	.	.
=12-	=12-	=12-	=12-	=12-	=12-	=12-	=12-	=12-	=12-	=12-	=12-	=12-	=12-	=12-	=12-
00r	.	.	.	00r	.	.	2.A\	-su	-ctis	2.c/	-lu-	-te-	.	.	.
.	.	.	.	.	.	.	4B\	vo-	ca-	4B/	.	.	.	.	.
.	.	.	.	.	.	.	2c\	-lun-	-te-	2A/	-ntas	-nas	0r	.	.
!	!	!	!	!	!	!	!LO:TX:t=P:problem:kreska pseudotaktowa	!	!	!LO:TX:t=P:problem:kreska pseudotaktowa	!	!	!	!	!
.	.	.	.	.	.	.	2B\	-tas	-nas	2G/	.	.	.	.	.
=13-	=13-	=13-	=13-	=13-	=13-	=13-	=13-	=13-	=13-	=13-	=13-	=13-	=13-	=13-	=13-
.	.	.	.	.	.	.	2.c\	cor-	de-	4A/	cor-	de-	.	.	.
.	.	.	.	.	.	.	.	.	.	4B/	.	.	.	.	.
.	.	.	.	.	.	.	.	.	.	4c/	.	.	.	.	.
!	!	!	!	!	!	!	!	!	!	!LO:TX:t=P:problem:kreska pseudotaktowa	!	!	!	!	!
.	.	.	.	.	.	.	4B\	.	.	4d/	.	.	.	.	.
.	.	.	.	.	.	.	2A/	.	.	4e\	.	.	0g\	Je-	Vin-
.	.	.	.	.	.	.	.	.	.	4c\	.	.	.	.	.
!	!	!	!	!	!	!	!LO:TX:t=P:problem:kreska pseudotaktowa	!	!	!	!	!	!	!	!
.	.	.	.	.	.	.	2F/	.	.	1f\	.	.	.	.	.
=14-	=14-	=14-	=14-	=14-	=14-	=14-	=14-	=14-	=14-	=14-	=14-	=14-	=14-	=14-	=14-
2r	.	.	.	2r	.	.	1.c\	.	.	.	.	.	.	.	.
!LO:TX:t=P:problem:kreska pseudotaktowa	!	!	!	!	!	!	!	!	!	!	!	!	!	!	!
2C/	Je-	Vin-	Vis	2C/	Je-	Vin-	.	.	.	2e\	-di-	-tra-	.	.	.
!	!	!	!	!	!	!	!	!	!	!LO:TX:t=P:problem:kreska pseudotaktowa	!	!	!	!	!
2E\	-su	-ctis	me-	2E\	-su	-ctis	.	.	.	1e\	-um:	-his	0a\	-zu	-ctis
!LO:TX:t=P:problem:kreska pseudotaktowa	!	!	!	!LO:TX:t=P:problem:kreska pseudotaktowa	!	!	!LO:TX:t=P:problem:kreska pseudotaktowa	!	!	!	!	!	!	!	!
2E\	vo-	ca-	-ta	2E\	vo-	ca-	2B\	.	.	.	.	.	.	.	.
=15-	=15-	=15-	=15-	=15-	=15-	=15-	=15-	=15-	=15-	=15-	=15-	=15-	=15-	=15-	=15-
2.F\	-lup-	-te-	nos-	2.F\	-lup-	-te-	1A\	.	.	2r	.	.	.	.	.
!	!	!	!	!	!	!	!	!	!	!LO:TX:t=P:problem:kreska pseudotaktowa	!	!	!	!	!
.	.	.	.	.	.	.	.	.	.	2c\	Je-	vin-	.	.	.
!LO:TX:t=P:problem:kreska pseudotaktowa	!	!	!	!	!	!	!	!	!	!	!	!	!	!	!
4E\	-tas	-nas	.	4E\	-tas	-nas	.	.	.	.	.	.	.	.	.
2D/	cor-	de-	-tris	2D/	cor-	de-	1F/	-di-	tra-	4d\	-su	-ctis	0cc\	Vo-	ca-
.	.	.	.	.	.	.	.	.	.	4e\	.	.	.	.	.
2D/	-di-	-tra-	cor-	2D/	-di-	-tra-	.	.	.	1f\	.	.	.	.	.
=16-	=16-	=16-	=16-	=16-	=16-	=16-	=16-	=16-	=16-	=16-	=16-	=16-	=16-	=16-	=16-
!LO:TX:t=P:problem:kreska pseudotaktowa	!	!	!	!LO:TX:t=P:problem:kreska pseudotaktowa	!	!	!LO:TX:t=P:problem:kreska pseudotaktowa	!	!	!	!	!	!	!	!
1C/	-um	-his	-dis	1C/	-um	-his	0G/	-um:	-his;	.	.	.	.	.	.
!	!	!	!	!	!	!	!	!	!	!LO:TX:t=P:problem:kreska pseudotaktowa	!	!	!	!	!
.	.	.	.	.	.	.	.	.	.	2e\	vo-	ca-	.	.	.
2r	.	.	.	2r	.	.	.	.	.	1d\	-lun-	-te-	1b\	-lup-	-te-
!LO:TX:t=P:problem:kreska pseudotaktowa	!	!	!	!	!	!	!	!	!	!	!	!	!	!	!
2GG/	Je-	vin-	Vis	2GG/	Je-	vin-	.	.	.	.	.	.	.	.	.
=17-	=17-	=17-	=17-	=17-	=17-	=17-	=17-	=17-	=17-	=17-	=17-	=17-	=17-	=17-	=17-
2.AA/	-su	-ctis	me-	2.AA/	-su	-ctis	2r	.	.	2c,\	-tas	-nas	1a\	-tas	-nas
!	!	!	!	!	!	!	!LO:TX:t=P:problem:kreska pseudotaktowa	!	!	!	!	!	!	!	!
.	.	.	.	.	.	.	2C/	Je-	Vin-	2.e\	cor-	de-	.	.	.
!LO:TX:t=P:problem:kreska pseudotaktowa	!	!	!	!	!	!	!	!	!	!	!	!	!	!	!
4BB/	vo-	ca-	-ta	4BB/	vo-	ca-	.	.	.	.	.	.	.	.	.
!	!	!	!	!	!	!	!LO:LB:g=original	!	!	!	!	!	!	!	!
*	*	*	*	*	*	*	*	*	*	*	*	*	*lig	*	*
2C/	-lup-	-te-	nos-	2C/	-lup-	-te-	2E/	-su	-ctis	.	.	.	1g\	.	.
.	.	.	.	.	.	.	.	.	.	4d\	.	.	.	.	.
!LO:TX:t=P:problem:kreska pseudotaktowa	!	!	!	!LO:TX:t=P:problem:kreska pseudotaktowa	!	!	!	!	!	!	!	!	!	!	!
2C/	-tas	-nas	-tris	2C/	-tas	-nas	2E,/	vo-	ca-	4c\	.	.	.	.	.
!	!	!	!	!	!	!	!	!	!	!LO:TX:t=P:problem:kreska pseudotaktowa	!	!	!	!	!
.	.	.	.	.	.	.	.	.	.	4B\	.	.	.	.	.
=18-	=18-	=18-	=18-	=18-	=18-	=18-	=18-	=18-	=18-	=18-	=18-	=18-	=18-	=18-	=18-
4D\	cor-	de-	cor-	4D\	cor-	de-	2F/	-lup-	-te-	2.A/	.	.	1f/	.	.
4E\	.	.	.	4E\	.	.	.	.	.	.	.	.	.	.	.
4F\	.	.	.	4F\	.	.	2D/	-tas	-nas	.	.	.	.	.	.
!LO:SIC:v:t=custos e	!	!	!	!	!	!	!	!	!	!	!	!	!	!	!
!LO:TX:t=P:problem:kreska pseudotaktowa	!	!	!	!	!	!	!	!	!	!	!	!	!	!	!
4D\	.	.	.	4D\	.	.	.	.	.	4B/	.	.	.	.	.
*	*	*	*	*	*	*	*	*	*	*	*	*	*Xlig	*	*
!LO:LB:g=original	!	!	!	!	!	!	!	!	!	!	!	!	!LO:LB:g=original	!	!
!	!	!	!	!	!	!	!LO:TX:t=P:problem:kreska pseudotaktowa:między nutą a kropką	!	!	!	!	!	!	!	!
2E\	.	.	.	2E\	.	.	[0G/	cor-	de-	4c/	.	.	2e/	Cor-	de-
.	.	.	.	.	.	.	.	.	.	4A/	.	.	.	.	.
!LO:TX:t=P:problem:kreska pseudotaktowa	!	!	!	!	!	!	!	!	!	!	!	!	!	!	!
2BB/	.	.	.	2BB/	.	.	.	.	.	[2d\	.	.	2d/	.	.
=19-	=19-	=19-	=19-	=19-	=19-	=19-	=19-	=19-	=19-	=19-	=19-	=19-	=19-	=19-	=19-
!	!	!	!	!LO:LB:g=original	!	!	!	!	!	!	!	!	!	!	!
!	!	!	!	!	!	!	!	!	!	!LO:N:xstem:cue	!	!	!	!	!
1C/	.	.	.	1C/	.	.	.	.	.	4d\]	.	.	1e/	.	.
.	.	.	.	.	.	.	.	.	.	4c/	.	.	.	.	.
.	.	.	.	.	.	.	.	.	.	1c\	.	.	.	.	.
2G\	.	.	.	2G\	.	.	2r	.	.	.	.	.	2.d/	.	.
2GG/	-di-	-tra-	-di-	2GG/	-di-	-tra-	2G/]	-di-	-tra-	2B/	-di-	-tra-	.	.	.
.	.	.	.	.	.	.	.	.	.	.	.	.	4d/	-di-	-tra-
=20-	=20-	=20-	=20-	=20-	=20-	=20-	=20-	=20-	=20-	=20-	=20-	=20-	=20-	=20-	=20-
!LO:TX:t=P:problem:kreska pseudotaktowa	!	!	!	!LO:TX:t=P:problem:kreska pseudotaktowa	!	!	!	!	!	!LO:TX:t=P:problem:kreska pseudotaktowa	!	!	!LO:TX:t=P:problem:kreska pseudotaktowa	!	!
1C/	-um	-his.	-bus	1C/	-um	-his.	1G/,	-um	-his	0c\	-um.	-his:	[0c/	-um:	-his;
2r	.	.	.	2r	.	.	2r	.	.	.	.	.	.	.	.
2F\	Or-	Vi-	Vis	2F\	Or-	Vi-	2A/	or-	Vic-	.	.	.	.	.	.
=21-	=21-	=21-	=21-	=21-	=21-	=21-	=21-	=21-	=21-	=21-	=21-	=21-	=21-	=21-	=21-
2F\	-bis	-ctor	La-	2F\	-bis	-ctor	2A/	-bis	-tor	0r	.	.	0c/]	.	.
!LO:TX:t=P:problem:kreska pseudotaktowa	!	!	!	!LO:TX:t=P:problem:kreska pseudotaktowa	!	!	!LO:TX:t=P:problem:kreska pseudotaktowa	!	!	!	!	!	!	!	!
2E\	re-	tri-	-chry-	2E\	re-	tri-	2G/	Re-	Tri-	.	.	.	.	.	.
4F\	-dem-	-um-	-ma-	4F\	-dem-	-um-	2.A\	-dem-	-um-	.	.	.	.	.	.
4E\	.	.	.	4E\	.	.	.	.	.	.	.	.	.	.	.
4F\	.	.	.	4F\	.	.	.	.	.	.	.	.	.	.	.
!LO:TX:t=P:problem:kreska pseudotaktowa	!	!	!	!LO:TX:t=P:problem:kreska pseudotaktowa	!	!	!	!	!	!	!	!	!	!	!
4G\	.	.	.	4G\	.	.	4B\	.	.	.	.	.	.	.	.
=22-	=22-	=22-	=22-	=22-	=22-	=22-	=22-	=22-	=22-	=22-	=22-	=22-	=22-	=22-	=22-
!	!	!	!	!	!	!	!	!	!	!LO:TX:t=P:problem:kreska pseudotaktowa	!	!	!	!	!
2A\	.	.	.	2A\	.	.	1.c\	-pti	-pho	1r	.	.	0r	.	.
!LO:TX:t=P:problem:kreska pseudotaktowa	!	!	!	!	!	!	!	!	!	!	!	!	!	!	!
2F\	-pti	-pho	-nu	2F\	-pti	-pho	.	.	.	.	.	.	.	.	.
1G\	Con-	no-	gau-	1G\	Con-	no-	.	.	.	1d\	Or-	Vic-	.	.	.
!	!	!	!	!	!	!	!LO:TX:t=P:problem:kreska pseudotaktowa	!	!	!	!	!	!	!	!
.	.	.	.	.	.	.	2B\	.	.	.	.	.	.	.	.
=23-	=23-	=23-	=23-	=23-	=23-	=23-	=23-	=23-	=23-	=23-	=23-	=23-	=23-	=23-	=23-
!	!	!	!	!	!	!	!	!	!	!	!	!	!LO:TX:t=P:problem:kreska pseudotaktowa	!	!
2F\	.	.	.	2F\	.	.	2A/	con-	no-	2d\	-bis	-tor	1r	.	.
!LO:TX:t=P:problem:kreska pseudotaktowa	!	!	!	!LO:TX:t=P:problem:kreska pseudotaktowa	!	!	!	!	!	!LO:TX:t=P:problem:kreska pseudotaktowa	!	!	!	!	!
2E\	.	.	.	2E\	.	.	2G/	.	.	2c\	re-	tri-	.	.	.
1D\	.	.	.	1D\	.	.	1.A\	.	.	2.d\	-dem-	-um-	2r	.	.
.	.	.	.	.	.	.	.	.	.	.	.	.	2d/	or-	Vic-
.	.	.	.	.	.	.	.	.	.	4e\	.	.	.	.	.
=24-	=24-	=24-	=24-	=24-	=24-	=24-	=24-	=24-	=24-	=24-	=24-	=24-	=24-	=24-	=24-
1AA/	-di-	-bi	-di-	2A\	.	.	.	.	.	2f\	.	.	2d/	-bis	-tor
!	!	!	!	!	!	!	!	!	!	!LO:TX:t=P:problem:kreska pseudotaktowa	!	!	!	!	!
.	.	.	.	2AA/	-di-	-bi-	2A\	-di-	-bi-	2e\	-pti	-pho	2c/	re-	Tri-
!LO:TX:t=P:problem:kreska pseudotaktowa	!	!	!	!LO:TX:t=P:problem:kreska pseudotaktowa	!	!	!LO:TX:t=P:problem:kreska pseudotaktowa	!	!	!	!	!	!	!	!
1D\	-tor.	-li	-(um)	1D\	-tor.	-li	1A\	-tor	-li,	2.f\	Con-	no-	2.d/	-dem-	-um-
.	.	.	.	.	.	.	.	.	.	4e\	.	.	4e/	.	.
=25-	=25-	=25-	=25-	=25-	=25-	=25-	=25-	=25-	=25-	=25-	=25-	=25-	=25-	=25-	=25-
00r	.	.	.	00r	.	.	2r	.	.	2d/	.	.	2f/	.	.
!	!	!	!	!	!	!	!LO:TX:t=P:problem:kreska pseudotaktowa	!	!	!	!	!	!LO:TX:t=P:problem:kreska pseudotaktowa	!	!
.	.	.	.	.	.	.	2A/	or-	vic-	4c/	.	.	2e/	.	.
!	!	!	!	!	!	!	!	!	!	!LO:TX:t=P:problem:kreska pseudotaktowa	!	!	!	!	!
.	.	.	.	.	.	.	.	.	.	4B/	.	.	.	.	.
.	.	.	.	.	.	.	2A/	-bis	-tor	4c\	.	.	2f/	-pti	-pho
.	.	.	.	.	.	.	.	.	.	4d\	.	.	.	.	.
.	.	.	.	.	.	.	2G/	re-	Tri-	1e\	.	.	2g/	.	.
=26-	=26-	=26-	=26-	=26-	=26-	=26-	=26-	=26-	=26-	=26-	=26-	=26-	=26-	=26-	=26-
.	.	.	.	.	.	.	2A\	-dem-	-um-	.	.	.	1f/	Con-	no-
!	!	!	!	!	!	!	!LO:SIC:v:t=custos c	!	!	!	!	!	!	!	!
!	!	!	!	!	!	!	!LO:TX:t=P:problem:kreska pseudotaktowa	!	!	!	!	!	!	!	!
.	.	.	.	.	.	.	2B\	-pti	-pho	2d\	.	.	.	.	.
!	!	!	!	!	!	!	!LO:LB:g=original	!	!	!	!	!	!	!	!
.	.	.	.	.	.	.	1.c\	Con-	no-	2e\	.	.	2.e/	.	.
.	.	.	.	.	.	.	.	.	.	2c\	-di-	-bi-	.	.	.
.	.	.	.	.	.	.	.	.	.	.	.	.	4e/	-di-	-bi-
=27-	=27-	=27-	=27-	=27-	=27-	=27-	=27-	=27-	=27-	=27-	=27-	=27-	=27-	=27-	=27-
!	!	!	!	!	!	!	!	!	!	!LO:TX:t=P:problem:kreska pseudotaktowa	!	!	!LO:TX:t=P:problem:kreska pseudotaktowa	!	!
2r	.	.	.	2r	.	.	.	.	.	1G/,	-tor	-li	1d/	-tor	-li
!LO:TX:t=P:problem:kreska pseudotaktowa	!	!	!	!	!	!	!LO:TX:t=P:problem:kreska pseudotaktowa	!	!	!	!	!	!	!	!
2G\	et	ad	Vis	2G\	et	ad	2B\	.	.	.	.	.	.	.	.
1A\	caſ-	dex-	dul-	2A\	caſ-	dex-	1c\	.	.	2r	.	.	1r	.	.
!	!	!	!	!LO:TX:t=P:problem:kreska pseudotaktowa	!	!	!	!	!	!	!	!	!	!	!
.	.	.	.	2A\	-ta	-te-	.	.	.	2c\	et	ad	.	.	.
=28-	=28-	=28-	=28-	=28-	=28-	=28-	=28-	=28-	=28-	=28-	=28-	=28-	=28-	=28-	=28-
1G\	ta	-r(am)	.	2G\	lux	-r(am)	2.B\	.	.	2d\	caſ-	dex-	2r	.	.
*	*	*	*	*	*	*	*	*	*	*	*	*	*2\right	*	*
!	!	!	!	!	!	!	!	!	!	!LO:TX:t=P:problem:kreska pseudotaktowa	!	!	!	!	!
.	.	.	.	2G\	a-	Pa-	.	.	.	2B/	-ta	-te-	2g\	et	ad
.	.	.	.	.	.	.	4B\	-di-	-bi-	.	.	.	.	.	.
!	!	!	!	!	!	!	!	!	!	!LO:LB:g=original	!	!	!	!	!
!LO:TX:t=P:problem:kreska pseudotaktowa	!	!	!	!LO:TX:t=P:problem:kreska pseudotaktowa	!	!	!LO:TX:t=P:problem:kreska pseudotaktowa	!	!	!	!	!	!	!	!
1F\	lux-	-tris	-ce	1F\	-man-	-tris	1A\,	-tor	-li	2c/	Lux	-ram	1.a\	caſ-	dex-
.	.	.	.	.	.	.	.	.	.	4B/	.	.	.	.	.
.	.	.	.	.	.	.	.	.	.	4A/	.	.	.	.	.
=29-	=29-	=29-	=29-	=29-	=29-	=29-	=29-	=29-	=29-	=29-	=29-	=29-	=29-	=29-	=29-
!	!	!	!	!LO:LB:g=original	!	!	!	!	!	!	!	!	!	!	!
1E\	a-	se-	vi-	2.E\	.	se-	2r	.	.	2B/	.	Pa-	.	.	.
.	.	.	.	.	.	.	2G/	et	ad	2c\	.	.	2g\	-ta	-te-
.	.	.	.	4E\	-ti-	-des	.	.	.	.	.	.	.	.	.
*lig	*	*	*	*	*	*	*	*	*	*	*	*	*	*	*
!	!	!	!	!	!	!	!	!	!	!LO:TX:t=P:problem:kreska pseudotaktowa	!	!	!LO:TX:t=P:problem:kreska pseudotaktowa	!	!
1D\	.	ad	.	1D\,	-um	ad	1.A\	caſ-	dex-	1d\	.	-tris	1f/	lux	-ram
=30-	=30-	=30-	=30-	=30-	=30-	=30-	=30-	=30-	=30-	=30-	=30-	=30-	=30-	=30-	=30-
!	!	!	!	!	!	!	!	!	!	!	!	!	!LO:LB:g=original	!	!
!	!	!	!	!LO:TX:t=P:problem:kreska pseudotaktowa	!	!	!	!	!	!	!	!	!	!	!
1E\	.	dex-	.	1E\	Lux	dex-	.	.	.	2B/	a-	se-	2.e/	a-	Pa-
.	.	.	.	.	.	.	4G/	-ta	-te-	1e\	-man-	.	.	.	.
!	!	!	!	!	!	!	!LO:TX:t=P:problem:kreska pseudotaktowa	!	!	!	!	!	!	!	!
.	.	.	.	.	.	.	4F/	.	.	.	.	.	4f/	.	.
*Xlig	*	*	*	*	*	*	*	*	*	*	*	*	*	*	*
2C/	.	-te-	.	2C/	a-	-te-	2E/	lux	-ram	.	.	.	2g/	-men	-tris
!LO:TX:t=P:problem:kreska pseudotaktowa	!	!	!	!	!	!	!	!	!	!LO:TX:t=P:problem:kreska pseudotaktowa	!	!	!	!	!
2D/	.	-ram	-tae	2D/	.	-ram	2F/	a-	Pa-	2d\	.	.	2.f/	.	se-
=31-	=31-	=31-	=31-	=31-	=31-	=31-	=31-	=31-	=31-	=31-	=31-	=31-	=31-	=31-	=31-
!LO:LB:g=original	!	!	!	!	!	!	!	!	!	!	!	!	!	!	!
1E\	.	.	prae-	1E\	.	.	1G/	-man-	-tris	2c/	.	.	.	.	.
.	.	.	.	.	.	.	.	.	.	.	.	.	4e/	.	.
.	.	.	.	.	.	.	.	.	.	2.B/	.	.	1e/	.	.
1F\	-man-	se-	-mi-	2.F\	man-	se-	1A\	-ti-	se-	.	.	.	.	.	.
.	.	.	.	.	.	.	.	.	.	4A/	.	.	.	.	.
.	.	.	.	.	.	.	.	.	.	1A/	.	.	2d/	ti-	.
.	.	.	.	4F\	-ti-	.	.	.	.	.	.	.	.	.	.
=32-	=32-	=32-	=32-	=32-	=32-	=32-	=32-	=32-	=32-	=32-	=32-	=32-	=32-	=32-	=32-
!LO:N:vis=00	!	!	!	!	!	!	!	!	!	!	!	!	!	!	!
0.E\	-tium.	-des.	-um	0.E\	-um.	-des.	0.B\;	-um	-des.	.	.	.	0.e/	-um	-des.
.	.	.	.	.	.	.	.	.	.	4G#X/	-ti-	.	.	.	.
!	!	!	!	!	!	!	!	!	!	!LO:TX:t=P:problem:kreska pseudotaktowa	!	!	!	!	!
.	.	.	.	.	.	.	.	.	.	4F#X/	.	.	.	.	.
.	.	.	.	.	.	.	.	.	.	0G#X/;	-um.	-des.	.	.	.
=33-	=33-	=33-	=33-	=33-	=33-	=33-	=33-	=33-	=33-	=33-	=33-	=33-	=33-	=33-	=33-
=34-	=34-	=34-	=34-	=34-	=34-	=34-	=34-	=34-	=34-	=34-	=34-	=34-	=34-	=34-	=34-
*M2/1	*	*	*	*M2/1	*	*	*M2/1	*	*	*M2/1	*	*	*M2/1	*	*
*met(C|)	*	*	*	*met(C|)	*	*	*met(C|)	*	*	*met(C|)	*	*	*met(C|)	*	*
00r	.	.	.	00r	.	.	00r	.	.	0r	.	.	1.f/	2. Qu(am)	4. Te
.	.	.	.	.	.	.	.	.	.	.	.	.	2e/	.	.
=35-	=35-	=35-	=35-	=35-	=35-	=35-	=35-	=35-	=35-	=35-	=35-	=35-	=35-	=35-	=35-
!	!	!	!	!	!	!	!	!	!	!LO:TX:t=P:problem:kreska pseudotaktowa	!	!	!	!	!
.	.	.	.	.	.	.	.	.	.	1r	.	.	2f/	vic-	co-
!	!	!	!	!	!	!	!	!	!	!	!	!	!LO:TX:t=P:problem:kreska pseudotaktowa	!	!
.	.	.	.	.	.	.	.	.	.	.	.	.	2g/	-tus	-gat
.	.	.	.	.	.	.	.	.	.	1.c\	2. Qu(am)	4. Te	2e/	es	in-
.	.	.	.	.	.	.	.	.	.	.	.	.	4c/	cle-	-dul-
.	.	.	.	.	.	.	.	.	.	.	.	.	4d/	.	.
=36-	=36-	=36-	=36-	=36-	=36-	=36-	=36-	=36-	=36-	=36-	=36-	=36-	=36-	=36-	=36-
0r	.	.	.	0r	.	.	00r	.	.	.	.	.	4e/	-men-	-gen-
.	.	.	.	.	.	.	.	.	.	.	.	.	4f/	.	.
!	!	!	!	!	!	!	!	!	!	!LO:TX:t=P:problem:kreska pseudotaktowa	!	!	!	!	!
.	.	.	.	.	.	.	.	.	.	2B/	.	.	1g\	.	.
.	.	.	.	.	.	.	.	.	.	2c\	vic-	co-	.	.	.
!	!	!	!	!	!	!	!	!	!	!	!	!	!LO:TX:t=P:problem:kreska pseudotaktowa	!	!
.	.	.	.	.	.	.	.	.	.	2d\	-tus	-gat	2f#X/	.	.
=37-	=37-	=37-	=37-	=37-	=37-	=37-	=37-	=37-	=37-	=37-	=37-	=37-	=37-	=37-	=37-
!LO:TX:t=P:problem:kreska pseudotaktowa	!	!	!	!LO:TX:t=P:problem:kreska pseudotaktowa	!	!	!	!	!	!	!	!	!	!	!
1r	.	.	.	1r	.	.	.	.	.	2B/	es	in	1g\	.	.
.	.	.	.	.	.	.	.	.	.	2.c\	de-	.	.	.	.
1.F\	2. Qu(am)	4. Te	.	1.F\	2. Qu(am)	4. Te	.	.	.	.	.	.	2.a\	.	.
.	.	.	.	.	.	.	.	.	.	4A/	.	.	.	.	.
!	!	!	!	!	!	!	!	!	!	!LO:TX:t=P:problem:kreska pseudotaktowa	!	!	!	!	!
.	.	.	.	.	.	.	.	.	.	2d\	.	dul-	.	.	.
!	!	!	!	!	!	!	!	!	!	!	!	!	!LO:TX:t=P:problem:kreska pseudotaktowa	!	!
.	.	.	.	.	.	.	.	.	.	.	.	.	4g\	.	.
=38-	=38-	=38-	=38-	=38-	=38-	=38-	=38-	=38-	=38-	=38-	=38-	=38-	=38-	=38-	=38-
!	!	!	!	!	!	!	!	!	!	!LO:LB:g=original	!	!	!	!	!
.	.	.	.	.	.	.	0r	.	.	4c\	-men-	-gen-	4a\	.	.
.	.	.	.	.	.	.	.	.	.	4d\	.	.	4b\	.	.
!LO:TX:t=P:problem:kreska pseudotaktowa	!	!	!	!	!	!	!	!	!	!	!	!	!	!	!
2E\	vic-	co-	.	2E\	vic-	co-	.	.	.	4e\	.	.	1cc\	.	.
.	.	.	.	.	.	.	.	.	.	4c\	.	.	.	.	.
2F\	-tus	-gat	.	2F\	-tus	-gat	.	.	.	2d\	.	.	.	.	.
!LO:TX:t=P:problem:kreska pseudotaktowa	!	!	!	!LO:TX:t=P:problem:kreska pseudotaktowa	!	!	!	!	!	!	!	!	!	!	!
2G\	es	in-	.	2G\	es	in-	.	.	.	2d\	-ti-	-ti-	2b\	.	.
=39-	=39-	=39-	=39-	=39-	=39-	=39-	=39-	=39-	=39-	=39-	=39-	=39-	=39-	=39-	=39-
!	!	!	!	!	!	!	!	!	!	!	!	!	!LO:LB:g=original	!	!
!	!	!	!	!	!	!	!LO:TX:t=P:problem:kreska pseudotaktowa	!	!	!LO:TX:t=P:problem:kreska pseudotaktowa	!	!	!	!	!
2E\	clem-	-dul-	.	2E\	clem-	-dul-	1r	.	.	1c\	-(am)?	-a,	4cc\	.	.
.	.	.	.	.	.	.	.	.	.	.	.	.	4b\	.	.
!LO:TX:t=P:problem:kreska pseudotaktowa:między nutą a kropką	!	!	!	!	!	!	!	!	!	!	!	!	!	!	!
2.F\	-en-	-gen-	.	2.F\	-en-	-gen-	.	.	.	.	.	.	4a\	-ti-	-ti-
.	.	.	.	.	.	.	.	.	.	.	.	.	4g\	.	.
.	.	.	.	.	.	.	0F/	2. Qua-	4. Te	2r	.	.	1a\	-(am)	-a,
4G\	.	.	.	4G\	.	.	.	.	.	.	.	.	.	.	.
4A\	.	.	.	4A\	.	.	.	.	.	2c/	qu(am)	Te	.	.	.
!LO:TX:t=P:problem:kreska pseudotaktowa	!	!	!	!LO:TX:t=P:problem:kreska pseudotaktowa	!	!	!	!	!	!	!	!	!	!	!
4B\	.	.	.	4B\	.	.	.	.	.	.	.	.	.	.	.
=40-	=40-	=40-	=40-	=40-	=40-	=40-	=40-	=40-	=40-	=40-	=40-	=40-	=40-	=40-	=40-
2c\	.	.	.	2c\	.	.	.	.	.	2A/	.	co-	0r	.	.
!	!	!	!	!	!	!	!	!	!	!LO:TX:t=P:problem:kreska pseudotaktowa	!	!	!	!	!
1A\	.	.	.	1A\	.	.	.	.	.	2A/	vic-	-gat	.	.	.
.	.	.	.	.	.	.	1E/	vic-	co-	2c/	-t(us)	in-	.	.	.
!LO:TX:a:t=P:problem:# above	!	!	!	!	!	!	!	!	!	!	!	!	!	!	!
2G#X\	-ti-	-ti-	.	2G#X\	-ti-	-ti-	.	.	.	2B/	es	-dul-	.	.	.
=41-	=41-	=41-	=41-	=41-	=41-	=41-	=41-	=41-	=41-	=41-	=41-	=41-	=41-	=41-	=41-
!LO:TX:t=P:problem:kreska pseudotaktowa	!	!	!	!LO:TX:t=P:problem:kreska pseudotaktowa	!	!	!LO:TX:t=P:problem:kreska pseudotaktowa	!	!	!	!	!	!	!	!
1A\	-(am)	-a	.	1A\	-(am)	-a	1F/	-t(us)	-gat	4A/	clem-	-gen-	2r	.	.
.	.	.	.	.	.	.	.	.	.	4B/	.	.	.	.	.
.	.	.	.	.	.	.	.	.	.	4c/	en-	.	1cc\	Qu(am)	Te
!	!	!	!	!	!	!	!	!	!	!LO:TX:t=P:problem:kreska pseudotaktowa	!	!	!	!	!
.	.	.	.	.	.	.	.	.	.	4d/	.	.	.	.	.
!	!	!	!	!LO:LB:g=original	!	!	!	!	!	!	!	!	!	!	!
2r	.	.	.	2r	.	.	1G/	es	in-	2e\	.	.	.	.	.
!LO:TX:t=P:problem:kreska pseudotaktowa	!	!	!	!	!	!	!	!	!	!	!	!	!LO:TX:t=P:problem:kreska pseudotaktowa	!	!
*	*ij	*ij	*	*	*	*	*	*	*	*	*	*	*	*	*
2G\	qua	Te	.	2F\	qua	Te	.	.	.	2d\	.	.	2b\	vic-	.
=42-	=42-	=42-	=42-	=42-	=42-	=42-	=42-	=42-	=42-	=42-	=42-	=42-	=42-	=42-	=42-
2F\	vic-	co-	.	2F\	vic-	co-	1A\	cle-	-dul-	1f\	.	.	2cc\	-t(us)	co-
!LO:TX:t=P:problem:kreska pseudotaktowa	!	!	!	!LO:TX:t=P:problem:kreska pseudotaktowa	!	!	!	!	!	!	!	!	!	!	!
2D/	-t(us)	-gat	.	2D\	-t(us)	-gat	.	.	.	.	.	.	2dd\	es	-gat
2E\	es	in-	.	2E\	es	in-	0G/	-men-	-gen-	1.e\	.	.	2b\	cle-	in-
!LO:TX:t=P:problem:kreska pseudotaktowa	!	!	!	!	!	!	!	!	!	!	!	!	!	!	!
2C/	clem-	-dul-	.	2C/	clem-	-dul-	.	.	.	.	.	.	1cc\	-men-	-dul-
=43-	=43-	=43-	=43-	=43-	=43-	=43-	=43-	=43-	=43-	=43-	=43-	=43-	=43-	=43-	=43-
4E\	-en-	-gen-	.	4E\	-en-	-gen-	.	.	.	.	.	.	.	.	.
4F\	.	.	.	4F\	.	.	.	.	.	.	.	.	.	.	.
!	!	!	!	!	!	!	!	!	!	!	!	!	!LO:TX:t=P:problem:kreska pseudotaktowa	!	!
4G\	.	.	.	4G\	.	.	.	.	.	4d\	.	.	2b\	.	.
!LO:TX:t=P:problem:kreska pseudotaktowa	!	!	!	!LO:TX:t=P:problem:kreska pseudotaktowa	!	!	!	!	!	!	!	!	!	!	!
4E\	.	.	.	4E\	.	.	.	.	.	4c\	.	.	.	.	.
4F\	.	.	.	4F\	.	.	1F/	-ti-	-ti-	2d\	.	.	2.a\	.	-gen-
4G\	.	.	.	4G\	.	.	.	.	.	.	.	.	.	.	.
1A\	.	.	.	1A\	.	.	.	.	.	2d\	-ti-	-ti-	.	.	.
.	.	.	.	.	.	.	.	.	.	.	.	.	4b\	.	.
=44-	=44-	=44-	=44-	=44-	=44-	=44-	=44-	=44-	=44-	=44-	=44-	=44-	=44-	=44-	=44-
!	!	!	!	!	!	!	!LO:TX:t=P:problem:kreska pseudotaktowa	!	!	!LO:TX:t=P:problem:kreska pseudotaktowa	!	!	!	!	!
.	.	.	.	.	.	.	0E/	-(am)	-a	0e\	-(am)?	-a	2cc\	.	.
!LO:LB:g=original	!	!	!	!	!	!	!	!	!	!	!	!	!	!	!
4G\	.	.	.	4G\	.	.	.	.	.	.	.	.	4b\	.	.
!LO:TX:t=P:problem:kreska pseudotaktowa	!	!	!	!LO:TX:t=P:problem:kreska pseudotaktowa	!	!	!	!	!	!	!	!	!LO:TX:t=P:problem:kreska pseudotaktowa	!	!
4F\	.	.	.	4F\	.	.	.	.	.	.	.	.	4a\	.	.
2G\	.	.	.	2G\	.	.	.	.	.	.	.	.	2b\	.	.
!LO:TX:t=P:problem:kreska pseudotaktowa	!	!	!	!	!	!	!	!	!	!	!	!	!	!	!
2G\	-ti-	-ti-	.	2G\	-ti-	-ti-	.	.	.	.	.	.	2b\	-ti-	-ti-
=45-	=45-	=45-	=45-	=45-	=45-	=45-	=45-	=45-	=45-	=45-	=45-	=45-	=45-	=45-	=45-
!	!	!	!	!	!	!	!LO:LB:g=original	!	!	!	!	!	!	!	!
!	!	!	!	!	!	!	!	!	!	!	!	!	!LO:TX:t=P:problem:kreska pseudotaktowa	!	!
2A\	-a	-a	.	2A,\	-a,	-a:	0r	.	.	2r	.	.	1a\	-(am),	-a
*	*Xij	*Xij	*	*	*	*	*	*	*	*	*	*	*	*	*
!LO:TX:t=P:problem:kreska pseudotaktowa	!	!	!	!LO:TX:t=P:problem:kreska pseudotaktowa	!	!	!	!	!	!	!	!	!	!	!
2F\	ut	ut	.	2F\	ut	ut	.	.	.	2c\	ut	ut	.	.	.
2F\	noſ-	dam-	.	2F\	noſ-	dam-	.	.	.	2d\	noſ-	dam-	2r	.	.
!	!	!	!	!	!	!	!	!	!	!	!	!	!LO:TX:t=P:problem:kreska pseudotaktowa	!	!
2E\	-tra	-na	.	2E\	-tra	-na	.	.	.	2e\	-tra	-na	2g\	ut	ut
=46-	=46-	=46-	=46-	=46-	=46-	=46-	=46-	=46-	=46-	=46-	=46-	=46-	=46-	=46-	=46-
!	!	!	!	!	!	!	!LO:TX:t=P:problem:kreska pseudotaktowa	!	!	!	!	!	!	!	!
1D\	fer-	nos-	.	1D\	fer-	nos-	1r	.	.	1.f\	fer-	noſ-	2a\	no-	dam-
!	!	!	!	!	!	!	!	!	!	!	!	!	!LO:TX:t=P:problem:kreska pseudotaktowa	!	!
.	.	.	.	.	.	.	.	.	.	.	.	.	2b\	-stra	-na
!	!	!	!	!LO:TX:t=P:problem:kreska pseudotaktowa	!	!	!	!	!	!	!	!	!	!	!
1C/	-res	-tra	.	1C/	-res	-tra	0G/	ut	ut	.	.	.	1.cc\	fer-	nos-
!	!	!	!	!	!	!	!	!	!	!LO:TX:t=P:problem:kreska pseudotaktowa	!	!	!	!	!
.	.	.	.	.	.	.	.	.	.	2e\	-res	-tra	.	.	.
=47-	=47-	=47-	=47-	=47-	=47-	=47-	=47-	=47-	=47-	=47-	=47-	=47-	=47-	=47-	=47-
*lig	*	*	*	*	*	*	*	*	*	*	*	*	*	*	*
1GG/	cri-	sar-	.	1GG/	cri-	sar-	.	.	.	2.d\	cri-	sar-	.	.	.
!	!	!	!	!	!	!	!	!	!	!	!	!	!LO:TX:t=P:problem:kreska pseudotaktowa	!	!
.	.	.	.	.	.	.	.	.	.	.	.	.	2b\	-res	-tra
.	.	.	.	.	.	.	.	.	.	4e\	.	.	.	.	.
*col	*	*	*	*	*	*	*	*	*	*	*	*	*	*	*
2.D/	.	.	.	2.D/	.	.	(1A\	no-	dam-	2f\	.	.	1.a\	cri-	sar-
.	.	.	.	.	.	.	.	.	.	2f\	-mi-	-ci-	.	.	.
*Xlig	*	*	*	*	*	*	*	*	*	*	*	*	*	*	*
!LO:TX:t=P:problem:kreska pseudotaktowa	!	!	!	!	!	!	!	!	!	!	!	!	!	!	!
4C/	.	.	.	8C/L	.	.	.	.	.	.	.	.	.	.	.
.	.	.	.	8BB/J	.	.	.	.	.	.	.	.	.	.	.
=48-	=48-	=48-	=48-	=48-	=48-	=48-	=48-	=48-	=48-	=48-	=48-	=48-	=48-	=48-	=48-
*Xcol	*	*	*	*	*	*	*	*	*	*	*	*	*	*	*
!	!	!	!	!	!	!	!	!	!	!LO:TX:t=P:problem:kreska pseudotaktowa	!	!	!	!	!
4AA/	.	.	.	4AA/	.	.	1.c\)	-stra	-na	1e\	-na	-as.	.	.	.
4BB/	.	.	.	4BB/	.	.	.	.	.	.	.	.	.	.	.
4C/	.	.	.	4C/	.	.	.	.	.	.	.	.	4g/	.	.
!	!	!	!	!LO:SIC:v:t=custos e	!	!	!	!	!	!	!	!	!LO:TX:t=P:problem:kreska pseudotaktowa	!	!
!LO:TX:t=P:problem:kreska pseudotaktowa	!	!	!	!LO:TX:t=P:problem:kreska pseudotaktowa	!	!	!	!	!	!	!	!	!	!	!
4D/	.	.	.	4D/	.	.	.	.	.	.	.	.	4f/	.	.
!	!	!	!	!LO:LB:g=original	!	!	!	!	!	!	!	!	!LO:LB:g=original	!	!
2E\	.	.	.	2E\	.	.	.	.	.	0r	.	.	4g/	.	.
.	.	.	.	.	.	.	.	.	.	.	.	.	4e/	.	.
!LO:TX:t=P:problem:kreska pseudotaktowa	!	!	!	!	!	!	!	!	!	!	!	!	!	!	!
2F\	.	.	.	2F\	.	.	2B\	.	.	.	.	.	1a\	.	.
=49-	=49-	=49-	=49-	=49-	=49-	=49-	=49-	=49-	=49-	=49-	=49-	=49-	=49-	=49-	=49-
2D/	.	.	.	2D\	.	.	1B\	fer-	noſ-	.	.	.	.	.	.
!	!	!	!	!	!	!	!	!	!	!	!	!	!LO:TX:t=P:problem:kreska pseudotaktowa	!	!
2E\	-mi-	-ci-	.	2E\	-mi-	-ci-	.	.	.	.	.	.	2g#X\	-mi-	-ci-
!LO:TX:t=P:problem:kreska pseudotaktowa	!	!	!	!LO:TX:t=P:problem:kreska pseudotaktowa	!	!	!LO:TX:t=P:problem:kreska pseudotaktowa	!	!	!	!	!	!	!	!
1AA/	-na	-as:	.	1AA/	-na	-as:	1A\	-res	-tra	2r	.	.	2a,\	-na	-as
!	!	!	!	!	!	!	!	!	!	!LO:TX:t=P:problem:kreska pseudotaktowa	!	!	!LO:TX:t=P:problem:kreska pseudotaktowa	!	!
.	.	.	.	.	.	.	.	.	.	2c/	ut	ut	2cc\	ut	ut
=50-	=50-	=50-	=50-	=50-	=50-	=50-	=50-	=50-	=50-	=50-	=50-	=50-	=50-	=50-	=50-
00r	.	.	.	00r	.	.	1G/	Cri-	sar-	2d\	nos-	dam-	2cc\	noſ-	dam-
!	!	!	!	!	!	!	!	!	!	!	!	!	!LO:TX:t=P:problem:kreska pseudotaktowa	!	!
.	.	.	.	.	.	.	.	.	.	2e\	-tra	-na	2b\	-tra	-na
.	.	.	.	.	.	.	1.F/	.	.	2f\	fer-	noſ-	1.a\	fer-	nos-
!	!	!	!	!	!	!	!	!	!	!LO:TX:t=P:problem:kreska pseudotaktowa	!	!	!	!	!
.	.	.	.	.	.	.	.	.	.	2c\	-res	-tra	.	.	.
=51-	=51-	=51-	=51-	=51-	=51-	=51-	=51-	=51-	=51-	=51-	=51-	=51-	=51-	=51-	=51-
.	.	.	.	.	.	.	.	.	.	2d\	cri-	sar-	.	.	.
!	!	!	!	!	!	!	!	!	!	!	!	!	!LO:TX:t=P:problem:kreska pseudotaktowa	!	!
.	.	.	.	.	.	.	2E/	.	.	2e\	.	.	2g/	-res	-tra
*	*	*	*	*	*	*	*lig	*	*	*	*	*	*	*	*
.	.	.	.	.	.	.	1F/	.	.	2c/	.	.	2a\	cri-	sar-
.	.	.	.	.	.	.	.	.	.	2.d/	.	.	2f/	.	.
=52-	=52-	=52-	=52-	=52-	=52-	=52-	=52-	=52-	=52-	=52-	=52-	=52-	=52-	=52-	=52-
0r	.	.	.	0r	.	.	1E/	.	.	.	.	.	1g\	.	.
.	.	.	.	.	.	.	.	.	.	4c/	.	.	.	.	.
.	.	.	.	.	.	.	.	.	.	1c\	.	.	.	.	.
*	*	*	*	*	*	*	*Xlig	*	*	*	*	*	*	*	*
.	.	.	.	.	.	.	2.D/	.	.	.	.	.	1f/	-mi-	-ci-
.	.	.	.	.	.	.	.	.	.	2B/	-mi-	-ci-	.	.	.
.	.	.	.	.	.	.	4D/	-mi-	-ci-	.	.	.	.	.	.
=53-	=53-	=53-	=53-	=53-	=53-	=53-	=53-	=53-	=53-	=53-	=53-	=53-	=53-	=53-	=53-
!	!	!	!	!	!	!	!LO:TX:t=P:problem:kreska pseudotaktowa	!	!	!LO:TX:t=P:problem:kreska pseudotaktowa	!	!	!LO:TX:t=P:problem:kreska pseudotaktowa	!	!
2r	.	.	.	2r	.	.	1C/	-na	-as;	1c\	-na;	-as:	0e/	-na,	-as;
!LO:TX:t=P:problem:kreska pseudotaktowa	!	!	!	!	!	!	!	!	!	!	!	!	!	!	!
2E\	mor-	Tu-	.	2E/	mor-	Tu-	.	.	.	.	.	.	.	.	.
2E\	-tem	-i	.	2E/	-tem	-i	00r	.	.	2r	.	.	.	.	.
!LO:TX:t=P:problem:kreska pseudotaktowa	!	!	!	!LO:TX:t=P:problem:kreska pseudotaktowa	!	!	!	!	!	!	!	!	!	!	!
2C/	su-	ques	.	2C/	su-	ques	.	.	.	2A/	mor-	Tu-	.	.	.
=54-	=54-	=54-	=54-	=54-	=54-	=54-	=54-	=54-	=54-	=54-	=54-	=54-	=54-	=54-	=54-
2D/	-bi-	vul-	.	2D\	-bi-	vul-	.	.	.	2A/	-tem	-i	1r	.	.
!	!	!	!	!	!	!	!	!	!	!LO:TX:t=P:problem:kreska pseudotaktowa	!	!	!	!	!
2E\	-res	-t(us)	.	2E\	-res	-t(us)	.	.	.	2G/	su-	que	.	.	.
*lig	*	*	*	*	*	*	*	*	*	*	*	*	*	*	*
!	!	!	!	!LO:TX:t=P:problem:kreska pseudotaktowa	!	!	!	!	!	!	!	!	!	!	!
1F\	in-	com-	.	1F\	in-	com-	.	.	.	2.A/	-bi-	vul-	2r	.	.
!	!	!	!	!	!	!	!	!	!	!	!	!	!LO:TX:t=P:problem:kreska pseudotaktowa	!	!
.	.	.	.	.	.	.	.	.	.	.	.	.	2a\	mor-	Tu-
.	.	.	.	.	.	.	.	.	.	4B/	.	.	.	.	.
=55-	=55-	=55-	=55-	=55-	=55-	=55-	=55-	=55-	=55-	=55-	=55-	=55-	=55-	=55-	=55-
*col	*	*	*	*	*	*	*	*	*	*	*	*	*	*	*
2.E/	.	.	.	2.E/	.	.	.	.	.	2c/	.	.	2a\	-tem	-i
!	!	!	!	!	!	!	!	!	!	!LO:TX:t=P:problem:kreska pseudotaktowa	!	!	!	!	!
.	.	.	.	.	.	.	.	.	.	2B/	-res	-tus	2g#X\	su-	que
*Xlig	*	*	*	*	*	*	*	*	*	*	*	*	*	*	*
!LO:TX:t=P:problem:kreska pseudotaktowa	!	!	!	!	!	!	!	!	!	!	!	!	!	!	!
4D/	.	.	.	4D/	.	.	.	.	.	.	.	.	.	.	.
*Xcol	*	*	*	*	*	*	*	*	*	*	*	*	*	*	*
2C/	.	.	.	2C/	.	.	2r	.	.	2c/	in-	com-	1a\	-bi-	vul-
!	!	!	!	!LO:TX:t=P:problem:kreska pseudotaktowa	!	!	!LO:TX:t=P:problem:kreska pseudotaktowa	!	!	!	!	!	!	!	!
2D/	.	.	.	2D/	.	.	2D/	mor-	Tu-	2.A/	.	.	.	.	.
=56-	=56-	=56-	=56-	=56-	=56-	=56-	=56-	=56-	=56-	=56-	=56-	=56-	=56-	=56-	=56-
!	!	!	!	!	!	!	!	!	!	!	!	!	!LO:TX:t=P:problem:kreska pseudotaktowa	!	!
2BB/	.	.	.	2BB/	.	.	1D/	-tem	-i	.	.	.	1b\	-ves	-t(us)
.	.	.	.	.	.	.	.	.	.	4G/	.	.	.	.	.
!LO:TX:t=P:problem:kreska pseudotaktowa	!	!	!	!	!	!	!	!	!	!	!	!	!	!	!
2GG/	.	.	.	2GG/	.	.	.	.	.	1G/	.	.	.	.	.
!LO:LB:g=original	!	!	!	!	!	!	!	!	!	!	!	!	!	!	!
2AA/	.	.	.	2AA/	.	.	1C/	su-	que	.	.	.	1.cc\	in-	com-
2AA/	.	.	.	2AA/	.	.	.	.	.	2F#X/	-no-	-po-	.	.	.
=57-	=57-	=57-	=57-	=57-	=57-	=57-	=57-	=57-	=57-	=57-	=57-	=57-	=57-	=57-	=57-
!	!	!	!	!	!	!	!	!	!	!LO:TX:t=P:problem:kreska pseudotaktowa	!	!	!	!	!
4GG/	-no-	-po-	.	4GG/	-no-	-po-	2.D/	-bi-	vul-	1G/	-cens	-tes.	.	.	.
4AA/	.	.	.	4AA/	.	.	.	.	.	.	.	.	.	.	.
!	!	!	!	!	!	!	!	!	!	!	!	!	!LO:TX:t=P:problem:kreska pseudotaktowa	!	!
4BB/	.	.	.	4BB/	.	.	.	.	.	.	.	.	2b\	.	.
!LO:TX:t=P:problem:kreska pseudotaktowa	!	!	!	!	!	!	!	!	!	!	!	!	!	!	!
4C/	.	.	.	4C/	.	.	4E/	.	.	.	.	.	.	.	.
!LO:TX:t=P:problem:kreska pseudotaktowa	!	!	!	!LO:TX:t=P:problem:kreska pseudotaktowa	!	!	!	!	!	!	!	!	!	!	!
1D\	-cens	-tes	.	1D\	-cens	-tes	1.F/	-ves	-t(us)	2r	.	.	2.a\	.	.
.	.	.	.	.	.	.	.	.	.	2d\	mor-	Tu-	.	.	.
!	!	!	!	!	!	!	!	!	!	!	!	!	!LO:TX:t=P:problem:kreska pseudotaktowa	!	!
.	.	.	.	.	.	.	.	.	.	.	.	.	4g/	.	.
=58-	=58-	=58-	=58-	=58-	=58-	=58-	=58-	=58-	=58-	=58-	=58-	=58-	=58-	=58-	=58-
!	!	!	!	!	!	!	!	!	!	!	!	!	!LO:LB:g=original	!	!
1r	.	.	.	1r	.	.	.	.	.	2d\	-tem	-i	4f/	.	.
.	.	.	.	.	.	.	.	.	.	.	.	.	4d/	.	.
!	!	!	!	!	!	!	!	!	!	!LO:TX:t=P:problem:kreska pseudotaktowa	!	!	!	!	!
.	.	.	.	.	.	.	2E/	.	.	2c#X\	su-	que	1g\	.	.
2r	.	.	.	2r	.	.	1D/	in-	com-	2d\	-bi-	vul-	.	.	.
!LO:TX:t=P:problem:kreska pseudotaktowa	!	!	!	!	!	!	!	!	!	!	!	!	!	!	!
*	*ij	*ij	*	*	*	*	*	*	*	*	*	*	*	*	*
2A\	mor-	Tu-	.	2A\	mor-	Tu-	.	.	.	2A/	-res	-t(us)	2f/	-no-	-po-
=59-	=59-	=59-	=59-	=59-	=59-	=59-	=59-	=59-	=59-	=59-	=59-	=59-	=59-	=59-	=59-
!	!	!	!	!	!	!	!	!	!	!	!	!	!LO:TX:t=P:problem:kreska pseudotaktowa	!	!
2A\	-tem	-i	.	2A\	-tem	-i	2.E/	.	.	2c/	in-	com-	1e/	-cens	-tes
!	!	!	!	!LO:TX:t=P:problem:kreska pseudotaktowa	!	!	!	!	!	!	!	!	!	!	!
2G#X\	su-	que	.	2G#X\	su-	que	.	.	.	4B/	.	.	.	.	.
.	.	.	.	.	.	.	4E/	-no-	-po-	4A/	.	.	.	.	.
!	!	!	!	!	!	!	!LO:TX:t=P:problem:kreska pseudotaktowa	!	!	!	!	!	!	!	!
2Bn\	-bi-	vul-	.	2Bn\	-bi-	vul-	0.E/	-cens	-tes	2.G/	.	.	2r	.	.
!LO:TX:t=P:problem:kreska pseudotaktowa	!	!	!	!	!	!	!	!	!	!	!	!	!	!	!
2c\	-res	-t(us)	.	2c\	-res	-t(us)	.	.	.	.	.	.	2e/	mor-	Tu-
.	.	.	.	.	.	.	.	.	.	4A/	.	.	.	.	.
=60-	=60-	=60-	=60-	=60-	=60-	=60-	=60-	=60-	=60-	=60-	=60-	=60-	=60-	=60-	=60-
2B\	in	com-	.	2B\	in	com-	.	.	.	2B/	.	.	2g\	-tem	-i
!LO:TX:t=P:problem:kreska pseudotaktowa:między nutą a kropką	!	!	!	!	!	!	!	!	!	!	!	!	!	!	!
(<2.A\	.	.	.	2.A\	.	.	.	.	.	2c\	.	.	2a\	su-	que
!	!	!	!	!	!	!	!	!	!	!	!	!	!LO:TX:t=P:problem:kreska pseudotaktowa	!	!
.	.	.	.	.	.	.	.	.	.	1B/	.	.	1b\	-bi-	vul-
4G\)	.	.	.	4G\	.	.	.	.	.	.	.	.	.	.	.
1G\	.	.	.	1G\	.	.	.	.	.	.	.	.	.	.	.
=61-	=61-	=61-	=61-	=61-	=61-	=61-	=61-	=61-	=61-	=61-	=61-	=61-	=61-	=61-	=61-
!	!	!	!	!	!	!	!LO:LB:g=original	!	!	!	!	!	!	!	!
!	!	!	!	!	!	!	!LO:TX:t=P:problem:kreska pseudotaktowa	!	!	!	!	!	!	!	!
.	.	.	.	.	.	.	1r	.	.	1A/	-no-	-po-	2cc\	-ves	-tus
!LO:TX:t=P:problem:kreska pseudotaktowa	!	!	!	!	!	!	!	!	!	!	!	!	!	!	!
!LO:TX:a:t=P:problem:# above	!	!	!	!LO:TX:t=P:problem:kreska pseudotaktowa	!	!	!	!	!	!	!	!	!	!	!
2F#X\	.	.	.	2F#X\	.	.	.	.	.	.	.	.	2.a\	in	com-
!	!	!	!	!	!	!	!	!	!	!LO:TX:t=P:problem:kreska pseudotaktowa	!	!	!	!	!
2G\	.	.	.	2G\	.	.	2r	.	.	1B/	-cens,	-tes	.	.	.
.	.	.	.	.	.	.	.	.	.	.	.	.	4g/	.	.
!	!	!	!	!LO:TX:t=P:problem:kreska pseudotaktowa	!	!	!	!	!	!	!	!	!	!	!
2E\	.	.	.	2E\	.	.	2G/	a	di-	.	.	.	1g\	.	.
=62-	=62-	=62-	=62-	=62-	=62-	=62-	=62-	=62-	=62-	=62-	=62-	=62-	=62-	=62-	=62-
1D\	.	.	.	2.D\	.	.	1.A\	mor-	-tes	2r	.	.	.	.	.
!	!	!	!	!	!	!	!	!	!	!	!	!	!LO:TX:t=P:problem:kreska pseudotaktowa	!	!
.	.	.	.	.	.	.	.	.	.	2d\	a	di-	2f/	no-	-po-
.	.	.	.	4D\	no-	-po-	.	.	.	.	.	.	.	.	.
!LO:TX:t=P:problem:kreska pseudotaktowa	!	!	!	!LO:TX:t=P:problem:kreska pseudotaktowa	!	!	!	!	!	!LO:TX:t=P:problem:kreska pseudotaktowa	!	!	!	!	!
1C/	-cens	-tes	.	1C/	-cens	-tes	.	.	.	1e\	mor-	-tes	2e,/	-cens	-tes
*	*Xij	*Xij	*	*	*	*	*	*	*	*	*	*	*	*	*
!	!	!	!	!	!	!	!LO:TX:t=P:problem:kreska pseudotaktowa	!	!	!	!	!	!	!	!
.	.	.	.	.	.	.	2G/	-te	be-	.	.	.	2g\	a-	di-
=63-	=63-	=63-	=63-	=63-	=63-	=63-	=63-	=63-	=63-	=63-	=63-	=63-	=63-	=63-	=63-
1r	.	.	.	1r	.	.	1F/	nos	-a-	2d\	-te	.	1.a\	-mor-	-tes
.	.	.	.	.	.	.	.	.	.	2c\	nos	be-	.	.	.
2r	.	.	.	2r	.	.	1E/	ut	-to	2B/	.	-a-	.	.	.
!LO:TX:t=P:problem:kreska pseudotaktowa	!	!	!	!LO:TX:t=P:problem:kreska pseudotaktowa	!	!	!	!	!	!	!	!	!LO:TX:t=P:problem:kreska pseudotaktowa	!	!
2G\	a	di-	.	2G\	a	di-	.	.	.	1d\	ut	-to	2g\	-te	.
=64-	=64-	=64-	=64-	=64-	=64-	=64-	=64-	=64-	=64-	=64-	=64-	=64-	=64-	=64-	=64-
*	*	*	*	*	*	*	*lig	*	*	*	*	*	*	*	*
1.A\	mor-	-tes	.	1.A\	mor-	-tes	1D/	tol-	Lu-	.	.	.	1f/	nos	be-
!	!	!	!	!	!	!	!	!	!	!LO:TX:t=P:problem:kreska pseudotaktowa	!	!	!	!	!
.	.	.	.	.	.	.	.	.	.	2c\	.	.	.	.	.
.	.	.	.	.	.	.	1E/	.	.	2B/	tol-	Lu-	2e/	.	-a-
!LO:TX:t=P:problem:kreska pseudotaktowa	!	!	!	!LO:TX:t=P:problem:kreska pseudotaktowa	!	!	!	!	!	!	!	!	!	!	!
2G\	-te	be-	.	2G\	-te	be-	.	.	.	1A/	.	.	1e/	ut	-to
=65-	=65-	=65-	=65-	=65-	=65-	=65-	=65-	=65-	=65-	=65-	=65-	=65-	=65-	=65-	=65-
*	*	*	*	*	*	*	*Xlig	*	*	*	*	*	*	*	*
2F\	nos	-a-	.	2F\	nos	-a-	[y0F/	.	.	.	.	.	.	.	.
!LO:TX:t=P:problem:kreska pseudotaktowa	!	!	!	!LO:TX:t=P:problem:kreska pseudotaktowa	!	!	!	!	!	!	!	!	!	!	!
2D/	ut	-to	.	2D\	ut	-to	.	.	.	2A/	-le-	-mi-	4d/	tol-	Lu-
.	.	.	.	.	.	.	.	.	.	.	.	.	4c/	.	.
!	!	!	!	!LO:LB:g=original	!	!	!	!	!	!	!	!	!	!	!
!	!	!	!	!	!	!	!	!	!	!LO:TX:t=P:problem:kreska pseudotaktowa	!	!	!	!	!
1.A\	tol-	be-	.	1.A\	tol-	be-	.	.	.	1B/	-res	-ne	2d/	.	.
.	.	.	.	.	.	.	.	.	.	.	.	.	2d/	-le-	-mi-
=66-	=66-	=66-	=66-	=66-	=66-	=66-	=66-	=66-	=66-	=66-	=66-	=66-	=66-	=66-	=66-
!	!	!	!	!	!	!	!LO:N:xstem:cue:vis	!	!	!	!	!	!LO:TX:t=P:problem:kreska pseudotaktowa	!	!
.	.	.	.	.	.	.	2F/]	.	.	2r	.	.	0.e/	-res	-ne
4G\	.	-a-	.	4G\	.	-a-	2F/	-le-	-mi-	2B/	a	di-	.	.	.
!	!	!	!	!LO:TX:t=P:problem:kreska pseudotaktowa	!	!	!	!	!	!	!	!	!	!	!
4F\	.	.	.	4F\	.	.	.	.	.	.	.	.	.	.	.
2.G\	.	.	.	2.G\	.	.	[y00E/;	-res	-ne.	1.c\	mor-	-tes	.	.	.
4F\	.	.	.	4F\	.	.	.	.	.	.	.	.	.	.	.
=67-	=67-	=67-	=67-	=67-	=67-	=67-	=67-	=67-	=67-	=67-	=67-	=67-	=67-	=67-	=67-
4E\	.	.	.	4E/	.	.	.	.	.	.	.	.	.	.	.
4D/	.	.	.	4D/	.	.	.	.	.	.	.	.	.	.	.
!	!	!	!	!	!	!	!	!	!	!LO:TX:t=P:problem:kreska pseudotaktowa	!	!	!	!	!
4C/	.	.	.	4C/	.	.	.	.	.	2B/	-te	be-	.	.	.
!LO:TX:t=P:problem:kreska pseudotaktowa	!	!	!	!LO:TX:t=P:problem:kreska pseudotaktowa	!	!	!	!	!	!	!	!	!	!	!
4BB/	.	.	.	4BB/	.	.	.	.	.	.	.	.	.	.	.
2AA/	.	.	.	2AA/	.	.	.	.	.	1.A/	nos	-a-	2r	.	.
!LO:TX:t=P:problem:kreska pseudotaktowa	!	!	!	!	!	!	!	!	!	!	!	!	!LO:TX:t=P:problem:kreska pseudotaktowa	!	!
2GG#X/	.	.	.	2GG#X/	.	.	.	.	.	.	.	.	2b\	a-	di-
=68-	=68-	=68-	=68-	=68-	=68-	=68-	=68-	=68-	=68-	=68-	=68-	=68-	=68-	=68-	=68-
!LO:LB:g=original	!	!	!	!	!	!	!	!	!	!	!	!	!LO:LB:g=original	!	!
!LO:SIC:v:t=fragment dopisany na  górze strony	!	!	!	!	!	!	!	!	!	!	!	!	!	!	!
4AA/	.	.	.	4AA/	.	.	.	.	.	.	.	.	1.cc\	-mor-	-tes
4BB/	.	.	.	4BB/	.	.	.	.	.	.	.	.	.	.	.
!	!	!	!	!	!	!	!	!	!	!LO:TX:t=P:problem:kreska pseudotaktowa	!	!	!	!	!
4C/	.	.	.	4C/	.	.	.	.	.	2G/	ut	-to	.	.	.
!LO:TX:t=P:problem:kreska pseudotaktowa	!	!	!	!	!	!	!	!	!	!	!	!	!	!	!
4D/	.	.	.	4D/	.	.	.	.	.	.	.	.	.	.	.
*lig	*	*	*	*	*	*	*	*	*	*	*	*	*	*	*
!	!	!	!	!LO:TX:t=P:problem:kreska pseudotaktowa	!	!	!	!	!	!	!	!	!	!	!
1E\	.	-to	.	1E\	.	-to	00E/_yy	.	.	4A/	tol-	Lu-	.	.	.
.	.	.	.	.	.	.	.	.	.	4B/	.	.	.	.	.
!	!	!	!	!	!	!	!	!	!	!	!	!	!LO:TX:t=P:problem:kreska pseudotaktowa	!	!
.	.	.	.	.	.	.	.	.	.	4c/	.	.	2b\	-te	be-
.	.	.	.	.	.	.	.	.	.	4d/	.	.	.	.	.
=69-	=69-	=69-	=69-	=69-	=69-	=69-	=69-	=69-	=69-	=69-	=69-	=69-	=69-	=69-	=69-
1.AA/	.	Lu-	.	1.A\	.	Lu-	.	.	.	2e\	.	.	2a\	nos	-a-
.	.	.	.	.	.	.	.	.	.	2c/	-le-	-mi-	2e/	ut	-to
*Xlig	*	*	*	*	*	*	*	*	*	*	*	*	*	*	*
.	.	.	.	.	.	.	.	.	.	00B/;	-res	-ne	1.a\	tol-	Lu-
2AA/	-le-	-mi-	.	2AA/	-le-	-mi-	.	.	.	.	.	.	.	.	.
=70-	=70-	=70-	=70-	=70-	=70-	=70-	=70-	=70-	=70-	=70-	=70-	=70-	=70-	=70-	=70-
0.E\;	-res.	-ne	.	0.E\;	-res.	-ne	.	.	.	.	.	.	.	.	.
!	!	!	!	!	!	!	!	!	!	!	!	!	!LO:TX:t=P:problem:kreska pseudotaktowa	!	!
.	.	.	.	.	.	.	.	.	.	.	.	.	2g#X/	-le-	-mi-
.	.	.	.	.	.	.	0E/]yy	.	.	.	.	.	0g#X\;	-res	-ne
=71-	=71-	=71-	=71-	=71-	=71-	=71-	=71-	=71-	=71-	=71-	=71-	=71-	=71-	=71-	=71-
=72-	=72-	=72-	=72-	=72-	=72-	=72-	=72-	=72-	=72-	=72-	=72-	=72-	=72-	=72-	=72-
*M2/1	*	*	*	*M2/1	*	*	*M2/1	*	*	*M2/1	*	*	*M2/1	*	*
*	*	*	*	*	*	*	*met(C|)	*	*	*	*	*	*	*	*
!	!	!	!	!	!	!	!LO:TX:t=P:problem:kreska pseudotaktowa	!	!	!	!	!	!	!	!
1ryy	.	.	.	1ryy	.	.	1r	.	.	1ryy	.	.	1ryy	.	.
1ryy	.	.	.	1ryy	.	.	1c\	5. Tu	.	1ryy	.	.	1ryy	.	.
=73-	=73-	=73-	=73-	=73-	=73-	=73-	=73-	=73-	=73-	=73-	=73-	=73-	=73-	=73-	=73-
1ryy	.	.	.	1ryy	.	.	2B\	dux	.	1ryy	.	.	1ryy	.	.
!	!	!	!	!	!	!	!LO:TX:t=P:problem:kreska pseudotaktowa	!	!	!	!	!	!	!	!
.	.	.	.	.	.	.	2c\	ad	.	.	.	.	.	.	.
1ryy	.	.	.	1ryy	.	.	2d\	as-	.	1ryy	.	.	1ryy	.	.
.	.	.	.	.	.	.	2e\	-tra	.	.	.	.	.	.	.
=74-	=74-	=74-	=74-	=74-	=74-	=74-	=74-	=74-	=74-	=74-	=74-	=74-	=74-	=74-	=74-
1ryy	.	.	.	1ryy	.	.	2.d\	et	.	1ryy	.	.	1ryy	.	.
.	.	.	.	.	.	.	4c\	.	.	.	.	.	.	.	.
1ryy	.	.	.	1ryy	.	.	2d\	.	.	1ryy	.	.	1ryy	.	.
.	.	.	.	.	.	.	2.e\	se-	.	.	.	.	.	.	.
=75-	=75-	=75-	=75-	=75-	=75-	=75-	=75-	=75-	=75-	=75-	=75-	=75-	=75-	=75-	=75-
1ryy	.	.	.	1ryy	.	.	.	.	.	1ryy	.	.	1ryy	.	.
.	.	.	.	.	.	.	4d\	.	.	.	.	.	.	.	.
.	.	.	.	.	.	.	4e\	.	.	.	.	.	.	.	.
.	.	.	.	.	.	.	4c\	.	.	.	.	.	.	.	.
1ryy	.	.	.	1ryy	.	.	2d\	.	.	1ryy	.	.	1ryy	.	.
!	!	!	!	!	!	!	!LO:TX:t=P:problem:kreska pseudotaktowa	!	!	!	!	!	!	!	!
.	.	.	.	.	.	.	2e\	.	.	.	.	.	.	.	.
=76-	=76-	=76-	=76-	=76-	=76-	=76-	=76-	=76-	=76-	=76-	=76-	=76-	=76-	=76-	=76-
!	!	!	!	!	!	!	!LO:LB:g=original	!	!	!	!	!	!	!	!
1ryy	.	.	.	1ryy	.	.	2d\	.	.	1ryy	.	.	1ryy	.	.
.	.	.	.	.	.	.	4c\	mi-	.	.	.	.	.	.	.
.	.	.	.	.	.	.	4B\	.	.	.	.	.	.	.	.
!	!	!	!	!	!	!	!LO:TX:t=P:problem:kreska pseudotaktowa	!	!	!	!	!	!	!	!
1ryy	.	.	.	1ryy	.	.	0A\	-ta	.	1ryy	.	.	1ryy	.	.
=77-	=77-	=77-	=77-	=77-	=77-	=77-	=77-	=77-	=77-	=77-	=77-	=77-	=77-	=77-	=77-
1ryy	.	.	.	1ryy	.	.	.	.	.	1ryy	.	.	1ryy	.	.
1ryy	.	.	.	1ryy	.	.	1r	.	.	1ryy	.	.	1ryy	.	.
=78-	=78-	=78-	=78-	=78-	=78-	=78-	=78-	=78-	=78-	=78-	=78-	=78-	=78-	=78-	=78-
1ryy	.	.	.	1ryy	.	.	2r	.	.	1ryy	.	.	1ryy	.	.
.	.	.	.	.	.	.	2d\	Tu	.	.	.	.	.	.	.
1ryy	.	.	.	1ryy	.	.	2B\	Dux	.	1ryy	.	.	1ryy	.	.
!	!	!	!	!	!	!	!LO:TX:t=P:problem:kreska pseudotaktowa	!	!	!	!	!	!	!	!
.	.	.	.	.	.	.	2c\	.	.	.	.	.	.	.	.
=79-	=79-	=79-	=79-	=79-	=79-	=79-	=79-	=79-	=79-	=79-	=79-	=79-	=79-	=79-	=79-
1ryy	.	.	.	1ryy	.	.	2F/	ad	.	1ryy	.	.	1ryy	.	.
.	.	.	.	.	.	.	2.A/	as-	.	.	.	.	.	.	.
1ryy	.	.	.	1ryy	.	.	.	.	.	1ryy	.	.	1ryy	.	.
.	.	.	.	.	.	.	4F/	.	.	.	.	.	.	.	.
!	!	!	!	!	!	!	!LO:TX:t=P:problem:kreska pseudotaktowa	!	!	!	!	!	!	!	!
.	.	.	.	.	.	.	2G/	-tra	.	.	.	.	.	.	.
=80-	=80-	=80-	=80-	=80-	=80-	=80-	=80-	=80-	=80-	=80-	=80-	=80-	=80-	=80-	=80-
1ryy	.	.	.	1ryy	.	.	2A/	et	.	1ryy	.	.	1ryy	.	.
.	.	.	.	.	.	.	2G/	se-	.	.	.	.	.	.	.
1ryy	.	.	.	1ryy	.	.	1.A\	.	.	1ryy	.	.	1ryy	.	.
=81-	=81-	=81-	=81-	=81-	=81-	=81-	=81-	=81-	=81-	=81-	=81-	=81-	=81-	=81-	=81-
1ryy	.	.	.	1ryy	.	.	.	.	.	1ryy	.	.	1ryy	.	.
!	!	!	!	!	!	!	!LO:TX:t=P:problem:kreska pseudotaktowa	!	!	!	!	!	!	!	!
.	.	.	.	.	.	.	2G#X/	.	.	.	.	.	.	.	.
1ryy	.	.	.	1ryy	.	.	2.G#y/	-mi-	.	1ryy	.	.	1ryy	.	.
.	.	.	.	.	.	.	4A/	.	.	.	.	.	.	.	.
=82-	=82-	=82-	=82-	=82-	=82-	=82-	=82-	=82-	=82-	=82-	=82-	=82-	=82-	=82-	=82-
!	!	!	!	!	!	!	!LO:TX:t=P:problem:kreska pseudotaktowa	!	!	!	!	!	!	!	!
1ryy	.	.	.	1ryy	.	.	1B\	-ta	.	1ryy	.	.	1ryy	.	.
1ryy	.	.	.	1ryy	.	.	2r	.	.	1ryy	.	.	1ryy	.	.
.	.	.	.	.	.	.	2Gn/	vis	.	.	.	.	.	.	.
=83-	=83-	=83-	=83-	=83-	=83-	=83-	=83-	=83-	=83-	=83-	=83-	=83-	=83-	=83-	=83-
1ryy	.	.	.	1ryy	.	.	2.A/	me-	.	1ryy	.	.	1ryy	.	.
!	!	!	!	!	!	!	!LO:TX:t=P:problem:kreska pseudotaktowa	!	!	!	!	!	!	!	!
.	.	.	.	.	.	.	4B\	.	.	.	.	.	.	.	.
1ryy	.	.	.	1ryy	.	.	2c\	-ta	.	1ryy	.	.	1ryy	.	.
.	.	.	.	.	.	.	2B\	no-	.	.	.	.	.	.	.
=84-	=84-	=84-	=84-	=84-	=84-	=84-	=84-	=84-	=84-	=84-	=84-	=84-	=84-	=84-	=84-
1ryy	.	.	.	1ryy	.	.	2.c\	.	.	1ryy	.	.	1ryy	.	.
!	!	!	!	!	!	!	!LO:SIC:v:t=custos a	!	!	!	!	!	!	!	!
!	!	!	!	!	!	!	!LO:TX:t=P:problem:kreska pseudotaktowa	!	!	!	!	!	!	!	!
.	.	.	.	.	.	.	4B\	-stris	.	.	.	.	.	.	.
1ryy	.	.	.	1ryy	.	.	2A/	cor-	.	1ryy	.	.	1ryy	.	.
!	!	!	!	!	!	!	!LO:TX:t=P:problem:kreska pseudotaktowa	!	!	!	!	!	!	!	!
.	.	.	.	.	.	.	2F/	.	.	.	.	.	.	.	.
=85-	=85-	=85-	=85-	=85-	=85-	=85-	=85-	=85-	=85-	=85-	=85-	=85-	=85-	=85-	=85-
1ryy	.	.	.	1ryy	.	.	1.c\	.	.	1ryy	.	.	1ryy	.	.
1ryy	.	.	.	1ryy	.	.	.	.	.	1ryy	.	.	1ryy	.	.
.	.	.	.	.	.	.	2B\	.	.	.	.	.	.	.	.
=86-	=86-	=86-	=86-	=86-	=86-	=86-	=86-	=86-	=86-	=86-	=86-	=86-	=86-	=86-	=86-
1ryy	.	.	.	1ryy	.	.	1A\	.	.	1ryy	.	.	1ryy	.	.
1ryy	.	.	.	1ryy	.	.	1F/	-di-	.	1ryy	.	.	1ryy	.	.
=87-	=87-	=87-	=87-	=87-	=87-	=87-	=87-	=87-	=87-	=87-	=87-	=87-	=87-	=87-	=87-
!	!	!	!	!	!	!	!LO:TX:t=P:problem:kreska pseudotaktowa	!	!	!	!	!	!	!	!
1ryy	.	.	.	1ryy	.	.	0G/	-bus	.	1ryy	.	.	1ryy	.	.
1ryy	.	.	.	1ryy	.	.	.	.	.	1ryy	.	.	1ryy	.	.
=88-	=88-	=88-	=88-	=88-	=88-	=88-	=88-	=88-	=88-	=88-	=88-	=88-	=88-	=88-	=88-
1ryy	.	.	.	1ryy	.	.	2r	.	.	1ryy	.	.	1ryy	.	.
.	.	.	.	.	.	.	2C/	vis	.	.	.	.	.	.	.
1ryy	.	.	.	1ryy	.	.	2E/	me-	.	1ryy	.	.	1ryy	.	.
.	.	.	.	.	.	.	2E/	-ta	.	.	.	.	.	.	.
=89-	=89-	=89-	=89-	=89-	=89-	=89-	=89-	=89-	=89-	=89-	=89-	=89-	=89-	=89-	=89-
1ryy	.	.	.	1ryy	.	.	2F/	noſ-	.	1ryy	.	.	1ryy	.	.
!	!	!	!	!	!	!	!LO:TX:t=P:problem:kreska pseudotaktowa	!	!	!	!	!	!	!	!
.	.	.	.	.	.	.	2D/	-tris	.	.	.	.	.	.	.
1ryy	.	.	.	1ryy	.	.	0G/	cor-	.	1ryy	.	.	1ryy	.	.
=90-	=90-	=90-	=90-	=90-	=90-	=90-	=90-	=90-	=90-	=90-	=90-	=90-	=90-	=90-	=90-
1ryy	.	.	.	1ryy	.	.	.	.	.	1ryy	.	.	1ryy	.	.
1ryy	.	.	.	1ryy	.	.	2r	.	.	1ryy	.	.	1ryy	.	.
.	.	.	.	.	.	.	2G/	-di-	.	.	.	.	.	.	.
=91-	=91-	=91-	=91-	=91-	=91-	=91-	=91-	=91-	=91-	=91-	=91-	=91-	=91-	=91-	=91-
!	!	!	!	!	!	!	!LO:TX:t=P:problem:kreska pseudotaktowa	!	!	!	!	!	!	!	!
1ryy	.	.	.	1ryy	.	.	1G/	-bus	.	1ryy	.	.	1ryy	.	.
1ryy	.	.	.	1ryy	.	.	2r	.	.	1ryy	.	.	1ryy	.	.
.	.	.	.	.	.	.	2A/	vis	.	.	.	.	.	.	.
=92-	=92-	=92-	=92-	=92-	=92-	=92-	=92-	=92-	=92-	=92-	=92-	=92-	=92-	=92-	=92-
1ryy	.	.	.	1ryy	.	.	2A/	la-	.	1ryy	.	.	1ryy	.	.
!	!	!	!	!	!	!	!LO:TX:t=P:problem:kreska pseudotaktowa	!	!	!	!	!	!	!	!
.	.	.	.	.	.	.	2G/	-chry-	.	.	.	.	.	.	.
1ryy	.	.	.	1ryy	.	.	2.A\	-ma-	.	1ryy	.	.	1ryy	.	.
.	.	.	.	.	.	.	4B\	.	.	.	.	.	.	.	.
=93-	=93-	=93-	=93-	=93-	=93-	=93-	=93-	=93-	=93-	=93-	=93-	=93-	=93-	=93-	=93-
1ryy	.	.	.	1ryy	.	.	1.c\	.	.	1ryy	.	.	1ryy	.	.
1ryy	.	.	.	1ryy	.	.	.	.	.	1ryy	.	.	1ryy	.	.
!	!	!	!	!	!	!	!LO:TX:t=P:problem:kreska pseudotaktowa	!	!	!	!	!	!	!	!
.	.	.	.	.	.	.	2B\	.	.	.	.	.	.	.	.
=94-	=94-	=94-	=94-	=94-	=94-	=94-	=94-	=94-	=94-	=94-	=94-	=94-	=94-	=94-	=94-
1ryy	.	.	.	1ryy	.	.	2A/	.	.	1ryy	.	.	1ryy	.	.
.	.	.	.	.	.	.	2G/	-rum	.	.	.	.	.	.	.
1ryy	.	.	.	1ryy	.	.	1.A\	gau-	.	1ryy	.	.	1ryy	.	.
=95-	=95-	=95-	=95-	=95-	=95-	=95-	=95-	=95-	=95-	=95-	=95-	=95-	=95-	=95-	=95-
1ryy	.	.	.	1ryy	.	.	.	.	.	1ryy	.	.	1ryy	.	.
.	.	.	.	.	.	.	2A\	-di-	.	.	.	.	.	.	.
!	!	!	!	!	!	!	!LO:TX:t=P:problem:kreska pseudotaktowa	!	!	!	!	!	!	!	!
1ryy	.	.	.	1ryy	.	.	1A\	-um	.	1ryy	.	.	1ryy	.	.
=96-	=96-	=96-	=96-	=96-	=96-	=96-	=96-	=96-	=96-	=96-	=96-	=96-	=96-	=96-	=96-
!	!	!	!	!	!	!	!LO:LB:g=original	!	!	!	!	!	!	!	!
1ryy	.	.	.	1ryy	.	.	2r	.	.	1ryy	.	.	1ryy	.	.
.	.	.	.	.	.	.	2A/	vis	.	.	.	.	.	.	.
1ryy	.	.	.	1ryy	.	.	2A/	la-	.	1ryy	.	.	1ryy	.	.
!	!	!	!	!	!	!	!LO:TX:t=P:problem:kreska pseudotaktowa	!	!	!	!	!	!	!	!
.	.	.	.	.	.	.	2G/	-chry-	.	.	.	.	.	.	.
=97-	=97-	=97-	=97-	=97-	=97-	=97-	=97-	=97-	=97-	=97-	=97-	=97-	=97-	=97-	=97-
1ryy	.	.	.	1ryy	.	.	2A\	-ma-	.	1ryy	.	.	1ryy	.	.
.	.	.	.	.	.	.	2B\	.	.	.	.	.	.	.	.
1ryy	.	.	.	1ryy	.	.	1.c\	-rum	.	1ryy	.	.	1ryy	.	.
=98-	=98-	=98-	=98-	=98-	=98-	=98-	=98-	=98-	=98-	=98-	=98-	=98-	=98-	=98-	=98-
1ryy	.	.	.	1ryy	.	.	.	.	.	1ryy	.	.	1ryy	.	.
!	!	!	!	!	!	!	!LO:TX:t=P:problem:kreska pseudotaktowa	!	!	!	!	!	!	!	!
.	.	.	.	.	.	.	2B\	.	.	.	.	.	.	.	.
1ryy	.	.	.	1ryy	.	.	1c\	gau-	.	1ryy	.	.	1ryy	.	.
=99-	=99-	=99-	=99-	=99-	=99-	=99-	=99-	=99-	=99-	=99-	=99-	=99-	=99-	=99-	=99-
*	*	*	*	*	*	*	*2\left	*	*	*	*	*	*	*	*
1ryy	.	.	.	1ryy	.	.	2.B\	.	.	1ryy	.	.	1ryy	.	.
.	.	.	.	.	.	.	4B\	-di-	.	.	.	.	.	.	.
!	!	!	!	!	!	!	!LO:TX:t=P:problem:kreska pseudotaktowa	!	!	!	!	!	!	!	!
1ryy	.	.	.	1ryy	.	.	1A\	-um	.	1ryy	.	.	1ryy	.	.
=100-	=100-	=100-	=100-	=100-	=100-	=100-	=100-	=100-	=100-	=100-	=100-	=100-	=100-	=100-	=100-
1ryy	.	.	.	1ryy	.	.	2r	.	.	1ryy	.	.	1ryy	.	.
.	.	.	.	.	.	.	2G/	vis	.	.	.	.	.	.	.
1ryy	.	.	.	1ryy	.	.	1.A\	dul-	.	1ryy	.	.	1ryy	.	.
=101-	=101-	=101-	=101-	=101-	=101-	=101-	=101-	=101-	=101-	=101-	=101-	=101-	=101-	=101-	=101-
1ryy	.	.	.	1ryy	.	.	.	.	.	1ryy	.	.	1ryy	.	.
.	.	.	.	.	.	.	4G/	-ce	.	.	.	.	.	.	.
!	!	!	!	!	!	!	!LO:TX:t=P:problem:kreska pseudotaktowa	!	!	!	!	!	!	!	!
.	.	.	.	.	.	.	4F/	.	.	.	.	.	.	.	.
1ryy	.	.	.	1ryy	.	.	2E/	vi-	.	1ryy	.	.	1ryy	.	.
.	.	.	.	.	.	.	2F,/	-tae	.	.	.	.	.	.	.
=102-	=102-	=102-	=102-	=102-	=102-	=102-	=102-	=102-	=102-	=102-	=102-	=102-	=102-	=102-	=102-
1ryy	.	.	.	1ryy	.	.	1G/	prae-	.	1ryy	.	.	1ryy	.	.
1ryy	.	.	.	1ryy	.	.	2.A\	.	.	1ryy	.	.	1ryy	.	.
.	.	.	.	.	.	.	4A\	-mi-	.	.	.	.	.	.	.
=103-	=103-	=103-	=103-	=103-	=103-	=103-	=103-	=103-	=103-	=103-	=103-	=103-	=103-	=103-	=103-
1ryy	.	.	.	1ryy	.	.	0B\;	-um.	.	1ryy	.	.	1ryy	.	.
1ryy	.	.	.	1ryy	.	.	.	.	.	1ryy	.	.	1ryy	.	.
=104-	=104-	=104-	=104-	=104-	=104-	=104-	=104-	=104-	=104-	=104-	=104-	=104-	=104-	=104-	=104-
*M2/1	*	*	*	*M2/1	*	*	*M2/1	*	*	*M2/1	*	*	*M2/1	*	*
*met(C|)	*	*	*	*met(C|)	*	*	*met(C|)	*	*	*met(C|)	*	*	*met(C|)	*	*
1ryy	.	.	.	1F\	A-	.	1c\	A-	.	1c\	A-	.	0a\	A-	.
1ryy	.	.	.	1D\	.	.	1.B\	.	.	2d\	.	.	.	.	.
!	!	!	!	!	!	!	!	!	!	!LO:TX:t=P:problem:kreska pseudotaktowa	!	!	!	!	!
.	.	.	.	.	.	.	.	.	.	2f\	.	.	.	.	.
=105-	=105-	=105-	=105-	=105-	=105-	=105-	=105-	=105-	=105-	=105-	=105-	=105-	=105-	=105-	=105-
!	!	!	!	!	!	!	!	!	!	!LO:TX:t=P:problem:kreska pseudotaktowa	!	!	!	!	!
1ryy	.	.	.	0E\	.	.	.	.	.	0e\	.	.	2g#X\	.	.
*	*	*	*	*	*	*	*2\right	*	*	*	*	*	*	*	*
.	.	.	.	.	.	.	2c\	.	.	.	.	.	1a\	.	.
1ryy	.	.	.	.	.	.	1B\	.	.	.	.	.	.	.	.
.	.	.	.	.	.	.	.	.	.	.	.	.	2g#X/	.	.
=106-	=106-	=106-	=106-	=106-	=106-	=106-	=106-	=106-	=106-	=106-	=106-	=106-	=106-	=106-	=106-
00ryy	.	.	.	00AA/;	-men	.	00c#X\;	-men	.	00e\	-men	.	00a\;	-men.	.
=107-	=107-	=107-	=107-	=107-	=107-	=107-	=107-	=107-	=107-	=107-	=107-	=107-	=107-	=107-	=107-
=-	=-	=-	=-	=-	=-	=-	=-	=-	=-	=-	=-	=-	=-	=-	=-
*-	*-	*-	*-	*-	*-	*-	*-	*-	*-	*-	*-	*-	*-	*-	*-
!!!system-decoration: [(s1,s2,s3,s4,)]s5
!!!EED: Leszek Kubiak
!!!EST: 2021-04-01
!!!ENC:Berenika Jozajtis
!!!END:2021-03-10
